!!!!SEGMENT: pl-cz--iii-830--001-004_raszek-waclaw--sinfonia-d-rondo.krn
!!!cenid: 17xx:1094
!!!COM: Raszek, Wacław
!!!COM-rismID: pe30020314
!!!CDT: <1848->1848
!!!CNT:
!!!OPR: Sinfonia D
!!!OTL: Rondo
!!!OMV: 004
!!!PDT:
!!!AGN: Secular
!!!SMS-siglum: PL-CZ
!!!SMS-shelfmark: III-830
!!!SMS-shelfwork: 001-004 M
!!!SMS-variant:
!!!SMS-altvar:
!!!NIFC-rismSourceID: 300001061
!!!NIFC-rismChildID: 300001061
!!!NIFC-islandoraID: pl-cz:41068
!!!URL-pdf-islandora: https://repozytorium.nifc.pl/islandora/object/pl-cz%3A41068/datastream/PDF/view
!!!URL-scan:
!!!ONB-nifc: UWAGA: części Sinfonii: Maestoso, Allegro vivace, Romance, Rondo
!!!AIN: 1 cbass 2 clars 2 cor 1 viola 2 violn
!!!key: D
**kern	**dynam	**kern	**kern	**dynam	**kern	**dynam	**kern	**kern	**dynam	**kern	**dynam	**kern	**dynam
*	*	*group3	*group3	*	*group3	*	*group2	*group2	*	*group1	*	*group1	*
*part8	*part8	*part7	*part6	*part6	*part5	*part5	*part4	*part3	*part3	*part2	*part2	*part1	*part1
*staff8	*	*staff7	*staff6	*	*staff5	*	*staff4	*staff3	*	*staff2	*	*staff1	*
*I"Basso	*	*I"[Viola]	*I"Violino Secundo	*	*I"Violino Primo	*	*I"[Corno Secundo]	*I"Cornu prymo in D.	*	*I"Clarynetto Secundo weloboie	*	*I"Clarynetto prymo wel Oboee	*
*I'b	*	*I'[vla]	*I'vl 2	*	*I'vl 1	*	*I'[cor 2]	*I'cor 1	*	*I'cl 2 vel ob	*	*I'cl 1 vel ob	*
*Icbass	*	*Iviola	*Ivioln	*	*Ivioln	*	*Icor	*Icor	*	*Iclars	*	*Iclars	*
*	*	*ICstr	*ICstr	*	*ICstr	*	*ICbras	*ICbras	*	*ICww	*	*ICww	*
*IGcont	*	*	*	*	*	*	*	*	*	*	*	*	*
*>[A,A,B,B,C,C,D,D,E,E,F]	*	*>[A,A,B,B,C,C,D,D,E,E,F]	*>[A,A,B,B,C,C,D,D,E,E,F]	*	*>[A,A,B,B,C,C,D,D,E,E,F]	*	*>[A,A,B,B,C,C,D,D,E,E,F]	*>[A,A,B,B,C,C,D,D,E,E,F]	*	*>[A,A,B,B,C,C,D,D,E,E,F]	*	*>[A,A,B,B,C,C,D,D,E,E,F]	*
*clefF4	*	*clefC3	*clefG2	*	*clefG2	*	*	*clefG2	*	*clefG2	*	*clefG2	*
*	*	*	*	*	*	*	*	*ITrd6c10	*	*	*	*	*
*k[f#c#]	*	*k[f#c#]	*k[f#c#]	*	*k[f#c#]	*	*	*k[f#c#]	*	*k[f#c#]	*	*k[f#c#]	*
*D:	*	*D:	*D:	*	*D:	*	*	*D:	*	*D:	*	*D:	*
*M2/4	*	*	*M2/4	*	*M2/4	*	*	*M2/4	*	*M2/4	*	*M2/4	*
*>A	*	*>A	*>A	*	*>A	*	*>A	*>A	*	*>A	*	*>A	*
*	*	*	*	*	*	*^	*	*	*	*	*	*	*
!LO:TX:a:i:t=allegro	!	!LO:TX:t=P:problem=wg RISM -  vla, cor 2 missing	!LO:TX:a:i:t=Allegro	!LO:DY:a:t=p.	!LO:TX:a:t=Allegro	!LO:DY:a:t=p.	!LO:DY:b:t=p&colon;	!LO:TX:t=P:problem=wg RISM -  vla, cor 2 missing	!LO:TX:a:i:t=Allegro	!	!	!	!LO:TX:a:i:t=Alegro	!
8r	.	8ryy	8r	p	8aa\	p	p	8ryy	8r	.	8r	.	8r	.
*	*	*	*	*	*	*v	*v	*	*	*	*	*	*	*
=1	=1	=1	=1	=1	=1	=1	=1	=1	=1	=1	=1	=1	=1
!LO:TX:a:t=7	!	!	!	!	!	!	!	!LO:TX:a:t=7	!	!LO:TX:a:t=7	!	!LO:TX:a:t=7	!
0r	.	2ryy	8a/ 8f#/	.	8aa'\L	.	2ryy	0r	.	0r	.	0r	.
.	.	.	8r	.	8aa'\	.	.	.	.	.	.	.	.
.	.	.	8a/ 8f#/	.	8aa'\	.	.	.	.	.	.	.	.
.	.	.	8r	.	8aa'\J	.	.	.	.	.	.	.	.
=2	=2	=2	=2	=2	=2	=2	=2	=2	=2	=2	=2	=2	=2
.	.	2ryy	4a/	.	(16aa\LL	.	2ryy	.	.	.	.	.	.
.	.	.	.	.	16gg\	.	.	.	.	.	.	.	.
.	.	.	.	.	16ff#\	.	.	.	.	.	.	.	.
.	.	.	.	.	16ee\JJ)	.	.	.	.	.	.	.	.
.	.	.	8r	.	8.dd\L	.	.	.	.	.	.	.	.
.	.	.	8a/	.	.	.	.	.	.	.	.	.	.
.	.	.	.	.	16ee\Jk	.	.	.	.	.	.	.	.
=3	=3	=3	=3	=3	=3	=3	=3	=3	=3	=3	=3	=3	=3
.	.	2ryy	8a/L	.	(8ff#\L	.	2ryy	.	.	.	.	.	.
.	.	.	8a/	.	8dd\)	.	.	.	.	.	.	.	.
.	.	.	8d/	.	(8b\	.	.	.	.	.	.	.	.
.	.	.	8e/J	.	8gg\J)	.	.	.	.	.	.	.	.
=4	=4	=4	=4	=4	=4	=4	=4	=4	=4	=4	=4	=4	=4
.	.	2ryy	4d/	.	4ff#\	.	2ryy	.	.	.	.	.	.
.	.	.	8c#/	.	8ee\L	.	.	.	.	.	.	.	.
.	.	.	8r	.	8aa\J	.	.	.	.	.	.	.	.
=5	=5	=5	=5	=5	=5	=5	=5	=5	=5	=5	=5	=5	=5
1r	.	2ryy	8a/ 8f#/	.	8aa'\L	.	2ryy	1r	.	1r	.	1r	.
.	.	.	8r	.	8aa'\	.	.	.	.	.	.	.	.
.	.	.	8a/ 8g/	.	8aa'\	.	.	.	.	.	.	.	.
.	.	.	8r	.	8aa'\J	.	.	.	.	.	.	.	.
=6	=6	=6	=6	=6	=6	=6	=6	=6	=6	=6	=6	=6	=6
.	.	2ryy	4a/ 4f#/	.	16aa\LL	.	2ryy	.	.	.	.	.	.
.	.	.	.	.	16gg\	.	.	.	.	.	.	.	.
.	.	.	.	.	16ff#\	.	.	.	.	.	.	.	.
.	.	.	.	.	16ee\JJ	.	.	.	.	.	.	.	.
.	.	.	8r	.	8.dd\L	.	.	.	.	.	.	.	.
.	.	.	8a/	.	.	.	.	.	.	.	.	.	.
.	.	.	.	.	16ff#\Jk	.	.	.	.	.	.	.	.
!	!	!	!	!	!LO:LB:g=original	!	!	!	!	!	!	!	!
=7	=7	=7	=7	=7	=7	=7	=7	=7	=7	=7	=7	=7	=7
2r	.	2ryy	8a/L	.	8ee'\L	.	2ryy	2r	.	2r	.	2r	.
.	.	.	8f#/	.	8dd'\	.	.	.	.	.	.	.	.
.	.	.	8e/	.	8cc#'\	.	.	.	.	.	.	.	.
.	.	.	8d/J	.	8b'\J	.	.	.	.	.	.	.	.
!	!	!	!LO:LB:g=original	!	!	!	!	!	!	!	!	!	!
=8	=8	=8	=8	=8	=8	=8	=8	=8	=8	=8	=8	=8	=8
4r	.	2ryy	(4d/	.	4b/	.	2ryy	4r	.	4r	.	4r	.
8r	.	.	8c#/)	.	8a/	.	.	8r	.	8r	.	8r	.
=:|!|:	=:|!|:	=:|!|:	=:|!|:	=:|!|:	=:|!|:	=:|!|:	=:|!|:	=:|!|:	=:|!|:	=:|!|:	=:|!|:	=:|!|:	=:|!|:
*>B	*	*>B	*>B	*	*>B	*	*>B	*>B	*	*>B	*	*>B	*
8r	.	.	8g/	.	8ee\	.	.	8r	.	8r	.	8r	.
=9	=9	=9	=9	=9	=9	=9	=9	=9	=9	=9	=9	=9	=9
!LO:TX:a:t=7	!	!	!	!	!	!	!	!LO:TX:a:t=7	!	!LO:TX:a:t=7	!	!LO:TX:a:t=7	!
0r	.	2ryy	8e/ 8c#/	.	8ee'\L	.	2ryy	0r	.	0r	.	0r	.
.	.	.	8r	.	8ee'\	.	.	.	.	.	.	.	.
.	.	.	8e/	.	8ee'\	.	.	.	.	.	.	.	.
.	.	.	8r	.	8ee'\J	.	.	.	.	.	.	.	.
=10	=10	=10	=10	=10	=10	=10	=10	=10	=10	=10	=10	=10	=10
.	.	2ryy	4e/ 4c#/	.	16ee\LL	.	2ryy	.	.	.	.	.	.
.	.	.	.	.	16dd\	.	.	.	.	.	.	.	.
.	.	.	.	.	16cc#\	.	.	.	.	.	.	.	.
.	.	.	.	.	16b\JJ	.	.	.	.	.	.	.	.
.	.	.	4r	.	16a\LL	.	.	.	.	.	.	.	.
.	.	.	.	.	16b\	.	.	.	.	.	.	.	.
.	.	.	.	.	16cc#\	.	.	.	.	.	.	.	.
.	.	.	.	.	16dd\JJ	.	.	.	.	.	.	.	.
=11	=11	=11	=11	=11	=11	=11	=11	=11	=11	=11	=11	=11	=11
.	.	2ryy	8c#/L	.	(8ee\L	.	2ryy	.	.	.	.	.	.
.	.	.	8e/	.	8gg\)	.	.	.	.	.	.	.	.
.	.	.	8d/	.	(8ff#\	.	.	.	.	.	.	.	.
.	.	.	8f#/J	.	8aa\J)	.	.	.	.	.	.	.	.
=12	=12	=12	=12	=12	=12	=12	=12	=12	=12	=12	=12	=12	=12
.	.	2ryy	8B/L	.	4ff#\	.	2ryy	.	.	.	.	.	.
.	.	.	8e/	.	.	.	.	.	.	.	.	.	.
.	.	.	8g/	.	8aa\L	.	.	.	.	.	.	.	.
.	.	.	8e/J	.	8aa\J	.	.	.	.	.	.	.	.
=13	=13	=13	=13	=13	=13	=13	=13	=13	=13	=13	=13	=13	=13
1r	.	2ryy	8a/ 8f#/	.	8aa'\L	.	2ryy	1r	.	1r	.	1r	.
.	.	.	8r	.	8aa'\	.	.	.	.	.	.	.	.
.	.	.	8a/	.	8aa'\	.	.	.	.	.	.	.	.
.	.	.	8r	.	8aa'\J	.	.	.	.	.	.	.	.
=14	=14	=14	=14	=14	=14	=14	=14	=14	=14	=14	=14	=14	=14
.	.	2ryy	4a/ 4f#/	.	(16aa\LL	.	2ryy	.	.	.	.	.	.
.	.	.	.	.	16gg\)	.	.	.	.	.	.	.	.
.	.	.	.	.	16ff#'\	.	.	.	.	.	.	.	.
.	.	.	.	.	16ee'\JJ	.	.	.	.	.	.	.	.
.	.	.	8r	.	8.dd\L	.	.	.	.	.	.	.	.
.	.	.	8a/	.	.	.	.	.	.	.	.	.	.
.	.	.	.	.	16ff#\Jk	.	.	.	.	.	.	.	.
!	!	!	!	!	!LO:LB:g=original	!	!	!	!	!	!	!	!
=15	=15	=15	=15	=15	=15	=15	=15	=15	=15	=15	=15	=15	=15
2r	.	2ryy	8b/L	.	8ee'\L	.	2ryy	2r	.	2r	.	2r	.
.	.	.	8g/	.	8ee'\	.	.	.	.	.	.	.	.
.	.	.	8f#/	.	8dd'\	.	.	.	.	.	.	.	.
.	.	.	8e/J	.	8cc#'\J	.	.	.	.	.	.	.	.
=16	=16	=16	=16	=16	=16	=16	=16	=16	=16	=16	=16	=16	=16
4r	.	2ryy	4e/	.	4cc#\	.	2ryy	4r	.	4r	.	4r	.
8r	.	.	8f#/	.	8dd\	.	.	8r	.	8r	.	8r	.
=:|!|:	=:|!|:	=:|!|:	=:|!|:	=:|!|:	=:|!|:	=:|!|:	=:|!|:	=:|!|:	=:|!|:	=:|!|:	=:|!|:	=:|!|:	=:|!|:
*>C	*	*>C	*>C	*	*>C	*	*>C	*>C	*	*>C	*	*>C	*
!	!	!	!	!	!	!LO:DY:rj:t=for	!	!	!	!	!	!	!
8r	.	.	8r	.	8aa\	f	.	8r	.	8r	.	8r	.
=17	=17	=17	=17	=17	=17	=17	=17	=17	=17	=17	=17	=17	=17
*	*	*	*	*	*tremolo	*	*	*	*	*tremolo	*	*	*
*	*	*	*	*	*2\right	*	*	*2\right	*	*2\right	*	*	*
!	!LO:DY:a:t=for	!	!	!LO:DY:rj:a:t=f.	!	!	!	!	!	!	!LO:DY:a:rj	!	!LO:DY:a:rj:t=f.
8D\L	f	2ryy	8f#/L	f	8ddd\L 8dd\	.	2ryy	2d\	.	8dd\L	f	8ff#\L	f
8G\	.	.	8b/	.	8ddd\ 8dd\	.	.	.	.	8dd\	.	8bb\	.
8F#\	.	.	8a/	.	8ddd\ 8dd\	.	.	.	.	8dd\	.	8aa\	.
8E\J	.	.	8g/J	.	8ddd\J 8dd\	.	.	.	.	8dd\J	.	8gg\J	.
*	*	*	*	*	*Xtremolo	*	*	*	*	*Xtremolo	*	*	*
!LO:LB:g=original	!	!	!LO:LB:g=original	!	!	!	!	!	!	!	!	!	!
=18	=18	=18	=18	=18	=18	=18	=18	=18	=18	=18	=18	=18	=18
4D\	.	2ryy	4f#/	.	(16ddd\LL	.	2ryy	4d\	.	4dd\	.	4ff#\	.
.	.	.	.	.	16ccc#\)	.	.	.	.	.	.	.	.
.	.	.	.	.	16bb'\	.	.	.	.	.	.	.	.
.	.	.	.	.	16aa'\JJ	.	.	.	.	.	.	.	.
8r	.	.	8r	.	16gg'\LL	.	.	8r	.	8r	.	8r	.
.	.	.	.	.	16ff#'\	.	.	.	.	.	.	.	.
8d\	.	.	8a/	.	16ee'\	.	.	8d\	.	8dd\	.	8ff#\	.
.	.	.	.	.	16dd'\JJ	.	.	.	.	.	.	.	.
=19	=19	=19	=19	=19	=19	=19	=19	=19	=19	=19	=19	=19	=19
8e\L	.	2ryy	8gg\L	.	16cc#\LL	.	2ryy	8e\L	.	8cc#\L	.	8gg\L	.
.	.	.	.	.	16a\	.	.	.	.	.	.	.	.
8d\	.	.	8ff#\	.	16dd\	.	.	8d\	.	8dd\	.	8ff#\	.
.	.	.	.	.	16a\JJ	.	.	.	.	.	.	.	.
8c#\	.	.	8ee\	.	16ee\LL	.	.	8e\	.	8ee\	.	8ee\	.
.	.	.	.	.	16a\	.	.	.	.	.	.	.	.
8B\J	.	.	8dd\J	.	16ff#\	.	.	8d\J	.	8dd\J	.	8dd\J	.
.	.	.	.	.	16a\JJ	.	.	.	.	.	.	.	.
!	!	!	!	!	!	!	!	!LO:LB:g=original	!	!LO:LB:g=original	!	!	!
=20	=20	=20	=20	=20	=20	=20	=20	=20	=20	=20	=20	=20	=20
8A\L	.	2ryy	8cc#\L	.	16gg\LL	.	2ryy	4e\	.	8cc#\L	.	4cc#\	.
.	.	.	.	.	16a\	.	.	.	.	.	.	.	.
8G\	.	.	8b\	.	16aa\	.	.	.	.	8b\	.	.	.
.	.	.	.	.	16a\JJ	.	.	.	.	.	.	.	.
8F#\	.	.	8a\	.	16bb\LL	.	.	8d\L	.	8a\	.	8dd\L	.
.	.	.	.	.	16a\	.	.	.	.	.	.	.	.
8E\J	.	.	8g\J	.	16ccc#\	.	.	8e\J	.	8g\J	.	8ee\J	.
.	.	.	.	.	16a\JJ	.	.	.	.	.	.	.	.
=21	=21	=21	=21	=21	=21	=21	=21	=21	=21	=21	=21	=21	=21
*	*	*	*	*	*tremolo	*	*	*tremolo	*	*	*	*	*
8D/L	.	2ryy	8f#/L	.	8ddd\L 8dd\	.	2ryy	8f#\L	.	8f#/L	.	8ff#\L	.
8C#/	.	.	8e/	.	8ddd\ 8dd\	.	.	8f#\	.	8a/	.	8ee\	.
8BB/	.	.	8d/	.	8ddd\ 8dd\	.	.	8f#\	.	8b/	.	8dd\	.
8AA/J	.	.	8c#/J	.	8ddd\J 8dd\	.	.	8f#\J	.	8cc#/J	.	8cc#\J	.
*	*	*	*	*	*Xtremolo	*	*	*Xtremolo	*	*	*	*	*
=22	=22	=22	=22	=22	=22	=22	=22	=22	=22	=22	=22	=22	=22
4G#X\	.	2ryy	4B/	.	16ddd\LL	.	2ryy	4e\	.	4b\	.	4dd\	.
.	.	.	.	.	16ccc#\	.	.	.	.	.	.	.	.
.	.	.	.	.	16bb\	.	.	.	.	.	.	.	.
.	.	.	.	.	16aa\JJ	.	.	.	.	.	.	.	.
8r	.	.	8r	.	16gg#X\LL	.	.	8r	.	8r	.	8r	.
.	.	.	.	.	16ff#\	.	.	.	.	.	.	.	.
8E\	.	.	8b/ 8g#X/	.	16ee\	.	.	8e\	.	8b\	.	8dd\	.
.	.	.	.	.	16dd\JJ	.	.	.	.	.	.	.	.
!	!	!	!	!	!LO:LB:g=original	!	!	!	!	!	!	!	!
=23	=23	=23	=23	=23	=23	=23	=23	=23	=23	=23	=23	=23	=23
!LO:TX:t=P:problem=mixed beam	!	!	!	!	!	!	!	!	!	!	!	!	!
8A\L	.	2ryy	8a/L	.	16cc#\LL	.	2ryy	8e\L	.	8a\L	.	8cc#\L	.
.	.	.	.	.	16a\	.	.	.	.	.	.	.	.
!	!	!	!	!	!LO:TX:a:t=e	!	!	!	!	!	!	!	!
8C#/	.	.	8e/	.	16ee\	.	.	8e\	.	8ee\	.	8ee\	.
.	.	.	.	.	16a\JJ	.	.	.	.	.	.	.	.
8D/	.	.	8f#/	.	16ff#\LL	.	.	8f#\	.	8ff#\	.	8ff#\	.
.	.	.	.	.	16a\	.	.	.	.	.	.	.	.
8E/J	.	.	8g#X/J	.	16gg#X\	.	.	8e\J	.	8dd\J	.	8gg#X\J	.
.	.	.	.	.	16a\JJ	.	.	.	.	.	.	.	.
!	!	!	!	!	!	!	!	!	!	!	!	!LO:LB:g=original	!
=24	=24	=24	=24	=24	=24	=24	=24	=24	=24	=24	=24	=24	=24
!LO:TX:t=P:problem=mixed beam	!	!	!	!	!	!	!	!	!	!	!	!	!
8A\L	.	2ryy	8a/L	.	8aa\L	.	2ryy	8e\L	.	8cc#\L	.	8aa\L	.
8E\	.	.	8cc#/	.	8aa\	.	.	8e\	.	8cc#\	.	8aa\	.
8AA/J	.	.	8cc#/J	.	8aa\J	.	.	8e\J	.	8cc#\J	.	8aa\J	.
=:|!|:	=:|!|:	=:|!|:	=:|!|:	=:|!|:	=:|!|:	=:|!|:	=:|!|:	=:|!|:	=:|!|:	=:|!|:	=:|!|:	=:|!|:	=:|!|:
*>D	*	*>D	*>D	*	*>D	*	*>D	*>D	*	*>D	*	*>D	*
8r	.	.	8r	.	16ee\LL	.	.	8r	.	8r	.	8r	.
.	.	.	.	.	16bb\JJ	.	.	.	.	.	.	.	.
=25	=25	=25	=25	=25	=25	=25	=25	=25	=25	=25	=25	=25	=25
*2\right	*	*	*	*	*	*	*	*	*	*	*	*2\right	*
*tremolo	*	*	*tremolo	*	*tremolo	*	*	*tremolo	*	*tremolo	*	*tremolo	*
8G\L	.	2ryy	8a/L 8e/	.	8ccc#\L	.	2ryy	8e\L	.	8ee\L	.	8aa\L	.
8G\	.	.	8a/ 8e/	.	8ccc#\	.	.	8e\	.	8ee\	.	8aa\	.
8G\	.	.	8a/ 8e/	.	8ccc#\	.	.	8e\	.	8ee\	.	8aa\	.
8G\J	.	.	8a/J 8e/	.	8ccc#\J	.	.	8e\J	.	8ee\J	.	8aa\J	.
*Xtremolo	*	*	*Xtremolo	*	*Xtremolo	*	*	*Xtremolo	*	*Xtremolo	*	*Xtremolo	*
!LO:LB:g=original	!	!	!	!	!	!	!	!	!	!	!	!	!
=26	=26	=26	=26	=26	=26	=26	=26	=26	=26	=26	=26	=26	=26
4G\	.	2ryy	4a/ 4e/	.	16ccc#\LL	.	2ryy	4e\	.	4ee\	.	4aa\	.
.	.	.	.	.	16ddd\	.	.	.	.	.	.	.	.
.	.	.	.	.	16ccc#\	.	.	.	.	.	.	.	.
.	.	.	.	.	16bb\JJ	.	.	.	.	.	.	.	.
8r	.	.	8r	.	16aa\LL	.	.	8r	.	8r	.	8r	.
.	.	.	.	.	16bb\	.	.	.	.	.	.	.	.
8G\	.	.	8a/ 8e/	.	16ccc#\	.	.	8e\	.	8cc#\	.	8aa\	.
.	.	.	.	.	16aa\JJ	.	.	.	.	.	.	.	.
!	!	!	!LO:LB:g=original	!	!	!	!	!	!	!	!	!	!
=27	=27	=27	=27	=27	=27	=27	=27	=27	=27	=27	=27	=27	=27
4F#\	.	2ryy	4a/ 4d/	.	16ddd\LL	.	2ryy	4d\	.	4dd\	.	4aa\	.
.	.	.	.	.	16ccc#\	.	.	.	.	.	.	.	.
.	.	.	.	.	16bb\	.	.	.	.	.	.	.	.
.	.	.	.	.	16aa\JJ	.	.	.	.	.	.	.	.
8r	.	.	8r	.	16gg#X\LL	.	.	8r	.	8r	.	8r	.
.	.	.	.	.	16aa\	.	.	.	.	.	.	.	.
8G\	.	.	8a/ 8e/	.	16bb\	.	.	8e\	.	8cc#\	.	8aa\	.
.	.	.	.	.	16ccc#\JJ	.	.	.	.	.	.	.	.
=28	=28	=28	=28	=28	=28	=28	=28	=28	=28	=28	=28	=28	=28
4F#\	.	2ryy	4a/ 4d/	.	16ddd\LL	.	2ryy	4d\	.	4dd\	.	4aa\	.
.	.	.	.	.	16ccc#\	.	.	.	.	.	.	.	.
.	.	.	.	.	16bb\	.	.	.	.	.	.	.	.
.	.	.	.	.	16aa\JJ	.	.	.	.	.	.	.	.
8r	.	.	8r	.	16gg#X\LL	.	.	8r	.	8r	.	8r	.
.	.	.	.	.	16aa\	.	.	.	.	.	.	.	.
8G\	.	.	8a/ 8e/	.	16bb\	.	.	8e\	.	8cc#\	.	8aa\	.
.	.	.	.	.	16ccc#\JJ	.	.	.	.	.	.	.	.
!	!	!	!	!	!LO:LB:g=original	!	!	!LO:LB:g=original	!	!LO:LB:g=original	!	!	!
=29	=29	=29	=29	=29	=29	=29	=29	=29	=29	=29	=29	=29	=29
*	*	*	*	*	*tremolo	*	*	*	*	*tremolo	*	*	*
8F#\L	.	2ryy	8a/L 8d/	.	8ddd\L	.	2ryy	8f#\L	.	8dd\L	.	8aa\L	.
!	!	!	!	!	!	!	!	!	!	!	!	!LO:TX:a:t=h	!
8G\	.	.	8b/	.	8ddd\	.	.	8d\	.	8dd\	.	8bb\	.
8F#\	.	.	8a/	.	8ddd\	.	.	8d\	.	8dd\	.	8aa\	.
8E\J	.	.	8g/J	.	8ddd\J	.	.	8d\J	.	8dd\J	.	8gg\J	.
*	*	*	*	*	*Xtremolo	*	*	*	*	*Xtremolo	*	*	*
=30	=30	=30	=30	=30	=30	=30	=30	=30	=30	=30	=30	=30	=30
4D\	.	2ryy	4f#/	.	16ddd\LL	.	2ryy	4d\	.	4dd\	.	4ff#\	.
.	.	.	.	.	16ccc#\	.	.	.	.	.	.	.	.
.	.	.	.	.	16bb\	.	.	.	.	.	.	.	.
.	.	.	.	.	16aa\JJ	.	.	.	.	.	.	.	.
8r	.	.	8r	.	16gg\LL	.	.	8r	.	8r	.	8r	.
.	.	.	.	.	16ff#\	.	.	.	.	.	.	.	.
8F#\	.	.	8a/	.	16ee\	.	.	8d\	.	8a/	.	8dd\	.
.	.	.	.	.	16dd\JJ	.	.	.	.	.	.	.	.
=31	=31	=31	=31	=31	=31	=31	=31	=31	=31	=31	=31	=31	=31
8G\L	.	2ryy	8b/L	.	16bb\LL	.	2ryy	8d\L	.	8b/L	.	8dd\L	.
.	.	.	.	.	16dd\	.	.	.	.	.	.	.	.
8F#\	.	.	8a/	.	16aa\	.	.	8d\	.	8a/	.	8dd\	.
.	.	.	.	.	16dd\JJ	.	.	.	.	.	.	.	.
8G\	.	.	8b/	.	16bb\LL	.	.	8d\	.	8b/	.	8dd\	.
.	.	.	.	.	16dd\	.	.	.	.	.	.	.	.
8A\J	.	.	8g/J	.	16ccc#\	.	.	8e\J	.	8cc#/J	.	8gg\J	.
.	.	.	.	.	16dd\JJ	.	.	.	.	.	.	.	.
=32	=32	=32	=32	=32	=32	=32	=32	=32	=32	=32	=32	=32	=32
!LO:TX:t=P:problem=mixed beam	!	!	!	!	!	!	!	!	!	!	!	!	!
8d\L	.	2ryy	8f#/L	.	8ddd\L	.	2ryy	8f#\L	.	8dd\L	.	8ff#\L	.
8A\	.	.	8f#/	.	8ddd\	.	.	8f#\	.	8dd\	.	8ff#\	.
8D/J	.	.	8f#/J	.	8ddd\J	.	.	8f#\J	.	8dd\J	.	8ff#\J	.
=:|!|:	=:|!|:	=:|!|:	=:|!|:	=:|!|:	=:|!|:	=:|!|:	=:|!|:	=:|!|:	=:|!|:	=:|!|:	=:|!|:	=:|!|:	=:|!|:
*>E	*	*>E	*>E	*	*>E	*	*>E	*>E	*	*>E	*	*>E	*
*k[fn cn b-]	*	*k[fn cn b-]	*k[fn cn b-]	*	*k[fn cn b-]	*	*k[fn cn b-]	*	*	*k[fn cn b-]	*	*k[fn cn b-]	*
!	!	!	!	!	!	!	!	!	!	!	!	!LO:TX:i:a:t=Solo	!
!LO:TX:b:t=minor	!LO:DY:a:t=p.	!	!LO:TX:a:t=Minor	!	!LO:TX:a:i:t=Minore	!	!	!LO:TX:t=P:problem=brak oznaczenia zmiany tonacji	!	!	!	!LO:TX:i:a:t=Minor	!
8r	p	.	8r	.	8cc\	.	.	8r	.	8r	.	8aa\	.
=33	=33	=33	=33	=33	=33	=33	=33	=33	=33	=33	=33	=33	=33
!	!	!	!	!LO:DY:a:rj	!	!	!	!LO:TX:a:t=7	!	!LO:TX:a:t=7	!	!	!
8d\	.	2ryy	8d/	p	8a/	.	2ryy	0r	.	0r	.	8aa\L	.
8r	.	.	8r	.	8r	.	.	.	.	.	.	8aa\	.
8c#X\	.	.	8e/	.	8a/	.	.	.	.	.	.	8aa\	.
8r	.	.	8r	.	8r	.	.	.	.	.	.	8aa\J	.
!LO:LB:g=original	!	!	!	!	!	!	!	!	!	!	!	!LO:LB:g=original	!
=34	=34	=34	=34	=34	=34	=34	=34	=34	=34	=34	=34	=34	=34
4d\	.	2ryy	4d/	.	4a/	.	2ryy	.	.	.	.	16aa\LL	.
.	.	.	.	.	.	.	.	.	.	.	.	16bb-\	.
.	.	.	.	.	.	.	.	.	.	.	.	16aa\	.
.	.	.	.	.	.	.	.	.	.	.	.	16gg\JJ	.
4r	.	.	4r	.	4r	.	.	.	.	.	.	16ff\LL	.
.	.	.	.	.	.	.	.	.	.	.	.	16gg\	.
.	.	.	.	.	.	.	.	.	.	.	.	16ff\	.
.	.	.	.	.	.	.	.	.	.	.	.	16ee\JJ	.
=35	=35	=35	=35	=35	=35	=35	=35	=35	=35	=35	=35	=35	=35
2B-\	.	2ryy	4.f/	.	2g#X/	.	2ryy	.	.	.	.	16dd\LL	.
.	.	.	.	.	.	.	.	.	.	.	.	16ee\	.
.	.	.	.	.	.	.	.	.	.	.	.	16dd\	.
.	.	.	.	.	.	.	.	.	.	.	.	16cc\JJ	.
.	.	.	.	.	.	.	.	.	.	.	.	16gg\LL	.
.	.	.	.	.	.	.	.	.	.	.	.	16ff\	.
.	.	.	8d/	.	.	.	.	.	.	.	.	16ee\	.
.	.	.	.	.	.	.	.	.	.	.	.	16dd\JJ	.
!	!	!	!LO:LB:g=original	!	!	!	!	!	!	!	!	!	!
=36	=36	=36	=36	=36	=36	=36	=36	=36	=36	=36	=36	=36	=36
8A\L	.	2ryy	8e/L	.	8a/L	.	2ryy	.	.	.	.	16cc#X\LL	.
.	.	.	.	.	.	.	.	.	.	.	.	16ee\	.
8A\	.	.	8e/ 8c#X/	.	8a/	.	.	.	.	.	.	16cc#\	.
.	.	.	.	.	.	.	.	.	.	.	.	16ee\JJ	.
8A\J	.	.	8e/J 8c#/	.	8a/J	.	.	.	.	.	.	8aa\L	.
8r	.	.	8r	.	8r	.	.	.	.	.	.	8aa\J	.
!	!	!	!	!	!LO:LB:g=original	!	!	!	!	!	!	!	!
=37	=37	=37	=37	=37	=37	=37	=37	=37	=37	=37	=37	=37	=37
8d\	.	2ryy	8e/	.	8a/	.	2ryy	1r	.	1r	.	8aa\L	.
8r	.	.	8r	.	8r	.	.	.	.	.	.	8aa\	.
8c#X\	.	.	8e/	.	8a/	.	.	.	.	.	.	8aa\	.
8r	.	.	8r	.	8r	.	.	.	.	.	.	8aa\J	.
=38	=38	=38	=38	=38	=38	=38	=38	=38	=38	=38	=38	=38	=38
8d\	.	2ryy	8d/	.	8a/	.	2ryy	.	.	.	.	16aa\LL	.
.	.	.	.	.	.	.	.	.	.	.	.	16bb-\	.
8r	.	.	8r	.	8r	.	.	.	.	.	.	16aa\	.
.	.	.	.	.	.	.	.	.	.	.	.	16gg\JJ	.
4r	.	.	8d/L	.	8f/L	.	.	.	.	.	.	16ff\LL	.
.	.	.	.	.	.	.	.	.	.	.	.	16gg\	.
.	.	.	8c/J	.	8e/J	.	.	.	.	.	.	16ff\	.
.	.	.	.	.	.	.	.	.	.	.	.	16ee\JJ	.
=39	=39	=39	=39	=39	=39	=39	=39	=39	=39	=39	=39	=39	=39
8r	.	2ryy	8B-/L	.	(8d/L	.	2ryy	2r	.	2r	.	8dd\L	.
!LO:TX:t=P:problem=mixed beam	!	!	!	!	!	!	!	!	!	!	!	!	!
8B-\L	.	.	8d/	.	8b-/)	.	.	.	.	.	.	8gg\	.
8c\	.	.	8c/	.	8a'/	.	.	.	.	.	.	8ff\	.
8C/J	.	.	8B-/J	.	8g'/J	.	.	.	.	.	.	8ee\J	.
=40	=40	=40	=40	=40	=40	=40	=40	=40	=40	=40	=40	=40	=40
8F\L	.	2ryy	4B-/	.	4g/	.	2ryy	4r	.	4r	.	4ee\	.
8C\	.	.	.	.	.	.	.	.	.	.	.	.	.
8F\J	.	.	8c/	.	8a/	.	.	8r	.	8r	.	8ff\	.
=:|!|:	=:|!|:	=:|!|:	=:|!|:	=:|!|:	=:|!|:	=:|!|:	=:|!|:	=:|!|:	=:|!|:	=:|!|:	=:|!|:	=:|!|:	=:|!|:
*>F	*	*>F	*>F	*	*>F	*	*>F	*>F	*	*>F	*	*>F	*
8r	.	.	8r	.	8ccc\	.	.	8r	.	8r	.	8r	.
=41	=41	=41	=41	=41	=41	=41	=41	=41	=41	=41	=41	=41	=41
!LO:TX:a:t=7	!	!	!	!	!	!	!	!	!	!	!	!	!
*	*	*	*	*	*tremolo	*	*	*	*	*	*	*	*
!	!	!	!	!	!LO:TX:t=....	!	!	!LO:TX:a:t=7	!	!LO:TX:a:t=8	!	!LO:TX:t=8	!
0r	.	2ryy	8a/	.	8ccc'\L	.	2ryy	0r	.	0r	.	0r	.
.	.	.	8r	.	8ccc'\	.	.	.	.	.	.	.	.
.	.	.	8b-/ 8g/	.	8ccc'\	.	.	.	.	.	.	.	.
.	.	.	8r	.	8ccc'\J	.	.	.	.	.	.	.	.
*	*	*	*	*	*Xtremolo	*	*	*	*	*	*	*	*
=42	=42	=42	=42	=42	=42	=42	=42	=42	=42	=42	=42	=42	=42
.	.	2ryy	4a/	.	16ccc\LL	.	2ryy	.	.	.	.	.	.
.	.	.	.	.	16ddd\	.	.	.	.	.	.	.	.
.	.	.	.	.	16ccc\	.	.	.	.	.	.	.	.
.	.	.	.	.	16bb-\JJ	.	.	.	.	.	.	.	.
.	.	.	4r	.	16aa\LL	.	.	.	.	.	.	.	.
.	.	.	.	.	16gg\	.	.	.	.	.	.	.	.
.	.	.	.	.	16aa\	.	.	.	.	.	.	.	.
.	.	.	.	.	16bb-\JJ	.	.	.	.	.	.	.	.
=43	=43	=43	=43	=43	=43	=43	=43	=43	=43	=43	=43	=43	=43
*	*	*	*	*	*tremolo	*	*	*	*	*	*	*	*
.	.	2ryy	8a/L	.	8ccc\L	.	2ryy	.	.	.	.	.	.
.	.	.	8a/	.	8ccc\	.	.	.	.	.	.	.	.
.	.	.	8g/	.	8ccc\	.	.	.	.	.	.	.	.
.	.	.	8g/J	.	8ccc\J	.	.	.	.	.	.	.	.
*	*	*	*	*	*Xtremolo	*	*	*	*	*	*	*	*
=44	=44	=44	=44	=44	=44	=44	=44	=44	=44	=44	=44	=44	=44
.	.	2ryy	4a/	.	16ccc\LL	.	2ryy	.	.	.	.	.	.
.	.	.	.	.	16ddd\	.	.	.	.	.	.	.	.
.	.	.	.	.	16ccc\	.	.	.	.	.	.	.	.
.	.	.	.	.	16bb-\JJ	.	.	.	.	.	.	.	.
.	.	.	4r	.	8aa\L	.	.	.	.	.	.	.	.
.	.	.	.	.	8aa\J	.	.	.	.	.	.	.	.
!	!	!	!	!	!LO:LB:g=original	!	!	!	!	!	!	!	!
=45	=45	=45	=45	=45	=45	=45	=45	=45	=45	=45	=45	=45	=45
*	*	*	*	*	*tremolo	*	*	*	*	*	*	*	*
1r	.	2ryy	8f/	.	8aa\L	.	2ryy	1r	.	0r	.	0r	.
.	.	.	8r	.	8aa\	.	.	.	.	.	.	.	.
.	.	.	8g/	.	8aa\	.	.	.	.	.	.	.	.
.	.	.	8r	.	8aa\J	.	.	.	.	.	.	.	.
*	*	*	*	*	*Xtremolo	*	*	*	*	*	*	*	*
!	!	!	!LO:LB:g=original	!	!	!	!	!	!	!	!	!	!
=46	=46	=46	=46	=46	=46	=46	=46	=46	=46	=46	=46	=46	=46
.	.	2ryy	4f/	.	16aa\LL	.	2ryy	.	.	.	.	.	.
.	.	.	.	.	16bb-\	.	.	.	.	.	.	.	.
.	.	.	.	.	16aa\	.	.	.	.	.	.	.	.
.	.	.	.	.	16gg\JJ	.	.	.	.	.	.	.	.
.	.	.	4r	.	16ff\LL	.	.	.	.	.	.	.	.
.	.	.	.	.	16ee\	.	.	.	.	.	.	.	.
.	.	.	.	.	16ff\	.	.	.	.	.	.	.	.
.	.	.	.	.	16gg\JJ	.	.	.	.	.	.	.	.
=47	=47	=47	=47	=47	=47	=47	=47	=47	=47	=47	=47	=47	=47
*	*	*	*	*	*tremolo	*	*	*	*	*	*	*	*
2r	.	2ryy	8f/L	.	8aa\L	.	2ryy	2r	.	.	.	.	.
.	.	.	8f/	.	8aa\	.	.	.	.	.	.	.	.
.	.	.	8g/	.	8aa\	.	.	.	.	.	.	.	.
.	.	.	8g/J	.	8aa\J	.	.	.	.	.	.	.	.
*	*	*	*	*	*Xtremolo	*	*	*	*	*	*	*	*
=48	=48	=48	=48	=48	=48	=48	=48	=48	=48	=48	=48	=48	=48
4r	.	2ryy	4f/	.	16aa\LL	.	2ryy	4r	.	.	.	.	.
.	.	.	.	.	16bb-\	.	.	.	.	.	.	.	.
.	.	.	.	.	16aa\	.	.	.	.	.	.	.	.
.	.	.	.	.	16gg\JJ	.	.	.	.	.	.	.	.
8r	.	.	8r	.	8ff\L	.	.	8r	.	.	.	.	.
!	!LO:DY:t=for	!	!	!LO:DY:a:t=for	!	!	!	!	!	!	!	!	!
8d\	f	.	8a/	f	8ff\J	.	.	8ryy	.	.	.	.	.
!	!	!	!	!	!	!	!	!	!	!	!	!LO:LB:g=original	!
=49	=49	=49	=49	=49	=49	=49	=49	=49	=49	=49	=49	=49	=49
*tremolo	*	*	*tremolo	*	*	*	*	*	*	*tremolo	*	*tremolo	*
!	!	!	!	!	!	!	!	!LO:TX:a:t=56	!	!	!	!	!
!	!	!	!	!	!	!LO:DY:a:rj:t=for	!	!	!	!	!	!	!LO:DY:a:rj:t=for
8d\L	.	2ryy	8a/L	.	16ff#X\LL	f	2ryy	2r	.	8ff#X\L	.	8aa\L	f
.	.	.	.	.	16gg\	.	.	.	.	.	.	.	.
8d\	.	.	8a/	.	16aa\	.	.	.	.	8ff#\	.	8aa\	.
.	.	.	.	.	16gg\JJ	.	.	.	.	.	.	.	.
8d\	.	.	8a/	.	16ff#\LL	.	.	.	.	8ff#\	.	8aa\	.
.	.	.	.	.	16dd\	.	.	.	.	.	.	.	.
8d\J	.	.	8a/J	.	16ee\	.	.	.	.	8ff#\J	.	8aa\J	.
.	.	.	.	.	16ff#\JJ	.	.	.	.	.	.	.	.
*Xtremolo	*	*	*Xtremolo	*	*	*	*	*	*	*Xtremolo	*	*Xtremolo	*
!LO:LB:g=original	!	!	!	!	!	!	!	!	!	!	!	!	!
=50	=50	=50	=50	=50	=50	=50	=50	=50	=50	=50	=50	=50	=50
16B-\LL	.	2ryy	16dd\LL	.	8.gg\L	.	2ryy	2r	.	2gg\	.	2bb-\	.
16c\	.	.	16ee-X\	.	.	.	.	.	.	.	.	.	.
16B-\	.	.	16dd\	.	.	.	.	.	.	.	.	.	.
16A\JJ	.	.	16cc\JJ	.	16aa\Jk	.	.	.	.	.	.	.	.
(8G\L	.	.	8b-\L	.	16bb-\LL	.	.	.	.	.	.	.	.
.	.	.	.	.	16aa\	.	.	.	.	.	.	.	.
16A\L	.	.	8dd\J	.	16gg\	.	.	.	.	.	.	.	.
16B-\JJ)	.	.	.	.	16ff\JJ	.	.	.	.	.	.	.	.
=51	=51	=51	=51	=51	=51	=51	=51	=51	=51	=51	=51	=51	=51
*tremolo	*	*	*tremolo	*	*	*	*	*	*	*tremolo	*	*tremolo	*
8c\L	.	2ryy	8g/L	.	16ee\LL	.	2ryy	2r	.	8ee\L	.	8gg\L	.
.	.	.	.	.	16ff\	.	.	.	.	.	.	.	.
8c\	.	.	8g/	.	16gg\	.	.	.	.	8ee\	.	8gg\	.
.	.	.	.	.	16ff\JJ	.	.	.	.	.	.	.	.
8c\	.	.	8g/	.	16ee\LL	.	.	.	.	8ee\	.	8gg\	.
.	.	.	.	.	16cc\	.	.	.	.	.	.	.	.
8c\J	.	.	8g/J	.	16dd\	.	.	.	.	8ee\J	.	8gg\J	.
.	.	.	.	.	16ee\JJ	.	.	.	.	.	.	.	.
*Xtremolo	*	*	*Xtremolo	*	*	*	*	*	*	*Xtremolo	*	*Xtremolo	*
!	!	!	!	!	!LO:LB:g=original	!	!	!	!	!LO:LB:g=original	!	!	!
=52	=52	=52	=52	=52	=52	=52	=52	=52	=52	=52	=52	=52	=52
16A\LL	.	2ryy	16cc\LL	.	8.ff\L	.	2ryy	2r	.	2ff\	.	2aa\	.
16B-\	.	.	16dd\	.	.	.	.	.	.	.	.	.	.
16A\	.	.	16cc\	.	.	.	.	.	.	.	.	.	.
16G\JJ	.	.	16b-\JJ	.	16gg\Jk	.	.	.	.	.	.	.	.
8F\L	.	.	8a\L	.	16aa\LL	.	.	.	.	.	.	.	.
.	.	.	.	.	16gg\	.	.	.	.	.	.	.	.
8A\J	.	.	8cc\J	.	16ff\	.	.	.	.	.	.	.	.
.	.	.	.	.	16ee\JJ	.	.	.	.	.	.	.	.
=53	=53	=53	=53	=53	=53	=53	=53	=53	=53	=53	=53	=53	=53
!	!	!	!LO:TX:t=P:problem=mixed beam	!	!	!	!	!	!	!	!	!	!
8B-\L	.	2ryy	16f/LL	.	8dd\	.	2ryy	2r	.	4dd\	.	8r	.
.	.	.	16f/	.	.	.	.	.	.	.	.	.	.
8G\	.	.	16dd\	.	4bb-\	.	.	.	.	.	.	4bb-\	.
.	.	.	16dd\JJ	.	.	.	.	.	.	.	.	.	.
*	*	*	*tremolo	*	*	*	*	*	*	*	*	*	*
8E\	.	.	16cc\LL	.	.	.	.	.	.	4cc\	.	.	.
.	.	.	16cc\	.	.	.	.	.	.	.	.	.	.
8F\J	.	.	16cc\	.	8aa\	.	.	.	.	.	.	8aa\	.
.	.	.	16cc\JJ	.	.	.	.	.	.	.	.	.	.
=54	=54	=54	=54	=54	=54	=54	=54	=54	=54	=54	=54	=54	=54
8D\L	.	2ryy	16b-/LL	.	8aa\	.	2ryy	2r	.	4b-\	.	8aa\	.
.	.	.	16b-/	.	.	.	.	.	.	.	.	.	.
8E\	.	.	16b-/	.	4gg\	.	.	.	.	.	.	4gg\	.
.	.	.	16b-/JJ	.	.	.	.	.	.	.	.	.	.
8C\	.	.	16a/LL	.	.	.	.	.	.	4a/	.	.	.
.	.	.	16a/	.	.	.	.	.	.	.	.	.	.
8D\J	.	.	16a/	.	8ff\	.	.	.	.	.	.	8ff\	.
.	.	.	16a/JJ	.	.	.	.	.	.	.	.	.	.
=55	=55	=55	=55	=55	=55	=55	=55	=55	=55	=55	=55	=55	=55
*	*	*	*^	*	*	*	*	*	*	*	*	*	*
*tremolo	*	*	*	*2\right	*	*tremolo	*	*	*	*	*tremolo	*	*tremolo	*
8d\L	.	2ryy	16bn/LL	16g\LL	.	8ff\L	.	2ryy	2r	.	8gg\L	.	8bbn\L	.
.	.	.	16b/	16g\	.	.	.	.	.	.	.	.	.	.
8d\	.	.	16b/	16g\	.	8ff\	.	.	.	.	8gg\	.	8bb\	.
.	.	.	16b/	16g\	.	.	.	.	.	.	.	.	.	.
8d\	.	.	16b/	16g\	.	8ff\	.	.	.	.	8gg\	.	8bb\	.
.	.	.	16b/	16g\	.	.	.	.	.	.	.	.	.	.
8d\J	.	.	16b/	16g\	.	8ff\J	.	.	.	.	8gg\J	.	8bb\J	.
.	.	.	16b/JJ	16g\JJ	.	.	.	.	.	.	.	.	.	.
*Xtremolo	*	*	*	*	*	*Xtremolo	*	*	*	*	*Xtremolo	*	*Xtremolo	*
!	!	!	!LO:LB:g=original	!LO:LB:g=original	!	!	!	!	!	!	!	!	!	!
=56	=56	=56	=56	=56	=56	=56	=56	=56	=56	=56	=56	=56	=56	=56
!LO:TX:t=P:problem=mixed beam	!	!	!	!	!	!	!	!	!	!	!	!	!	!
8c\L	.	2ryy	16cc/LL	16g\LL	.	16ee\LL	.	2ryy	2r	.	2gg\	.	2ccc\	.
.	.	.	16cc/	16g\	.	16ff\	.	.	.	.	.	.	.	.
8c\	.	.	16cc/	16g\	.	16ee\	.	.	.	.	.	.	.	.
.	.	.	16cc/	16g\	.	16ff\JJ	.	.	.	.	.	.	.	.
8c\	.	.	16cc/	16g\	.	16aa\LL	.	.	.	.	.	.	.	.
.	.	.	16cc/	16g\	.	16gg\	.	.	.	.	.	.	.	.
8C/J	.	.	16cc/	16g\	.	16ff\	.	.	.	.	.	.	.	.
.	.	.	16cc/JJ	16g\JJ	.	16ee\JJ	.	.	.	.	.	.	.	.
*	*	*	*v	*v	*	*	*	*	*	*	*	*	*	*
=57	=57	=57	=57	=57	=57	=57	=57	=57	=57	=57	=57	=57	=57
*tremolo	*	*	*	*	*tremolo	*	*	*	*	*tremolo	*	*tremolo	*
*	*	*	*^	*	*	*	*	*	*	*	*	*	*
8D\L	.	2ryy	16bn/LL	16g\LL	.	8ff\L	.	2ryy	2r	.	8gg\L	.	8bbn\L	.
.	.	.	16b/	16g\	.	.	.	.	.	.	.	.	.	.
8D\	.	.	16b/	16g\	.	8ff\	.	.	.	.	8gg\	.	8bb\	.
.	.	.	16b/	16g\	.	.	.	.	.	.	.	.	.	.
8D\	.	.	16b/	16g\	.	8ff\	.	.	.	.	8gg\	.	8bb\	.
.	.	.	16b/	16g\	.	.	.	.	.	.	.	.	.	.
8D\J	.	.	16b/	16g\	.	8ff\J	.	.	.	.	8gg\J	.	8bb\J	.
.	.	.	16b/JJ	16g\JJ	.	.	.	.	.	.	.	.	.	.
*	*	*	*	*	*	*Xtremolo	*	*	*	*	*Xtremolo	*	*Xtremolo	*
!LO:LB:g=original	!	!	!	!	!	!	!	!	!	!	!	!	!	!
=58	=58	=58	=58	=58	=58	=58	=58	=58	=58	=58	=58	=58	=58	=58
8C/L	.	2ryy	16cc/LL	16g\LL	.	16ee\LL	.	2ryy	2r	.	2gg\	.	2ccc\	.
.	.	.	16cc/	16g\	.	16ff\	.	.	.	.	.	.	.	.
8C/	.	.	16cc/	16g\	.	16ee\	.	.	.	.	.	.	.	.
.	.	.	16cc/	16g\	.	16ff\JJ	.	.	.	.	.	.	.	.
8C/	.	.	16cc/	16g\	.	16gg\LL	.	.	.	.	.	.	.	.
.	.	.	16cc/	16g\	.	16aa\	.	.	.	.	.	.	.	.
8C/J	.	.	16cc/	16g\	.	16gg\	.	.	.	.	.	.	.	.
.	.	.	16cc/JJ	16g\JJ	.	16aa\JJ	.	.	.	.	.	.	.	.
*Xtremolo	*	*	*	*	*	*	*	*	*	*	*	*	*	*
*	*	*	*v	*v	*	*	*	*	*	*	*	*	*	*
=59	=59	=59	=59	=59	=59	=59	=59	=59	=59	=59	=59	=59	=59
*	*	*	*^	*	*	*	*	*	*	*	*	*	*
*	*	*	*	*	*	*tremolo	*	*	*	*	*tremolo	*	*tremolo	*
8E\L	.	2ryy	16cc/LL	16g\LL	.	8bb-\L	.	2ryy	2r	.	8gg\L	.	8bb-X\L	.
.	.	.	16cc/	16g\	.	.	.	.	.	.	.	.	.	.
8G\	.	.	16cc/	16g\	.	8bb-\	.	.	.	.	8gg\	.	8bb-\	.
.	.	.	16cc/	16g\	.	.	.	.	.	.	.	.	.	.
8E\	.	.	16cc/	16g\	.	8bb-\	.	.	.	.	8gg\	.	8bb-\	.
.	.	.	16cc/	16g\	.	.	.	.	.	.	.	.	.	.
8C\J	.	.	16cc/	16g\	.	8bb-\J	.	.	.	.	8gg\J	.	8bb-\J	.
.	.	.	16cc/JJ	16g\JJ	.	.	.	.	.	.	.	.	.	.
*	*	*	*	*	*	*Xtremolo	*	*	*	*	*Xtremolo	*	*Xtremolo	*
*	*	*	*v	*v	*	*	*	*	*	*	*	*	*	*
=60	=60	=60	=60	=60	=60	=60	=60	=60	=60	=60	=60	=60	=60
8F\L	.	2ryy	16cc\LL	.	16aa\LL	.	2ryy	2r	.	4.gg\	.	4.aa\	.
.	.	.	16cc\	.	16aa\	.	.	.	.	.	.	.	.
8A\	.	.	16cc\	.	16ccc\	.	.	.	.	.	.	.	.
.	.	.	16cc\	.	16ccc\JJ	.	.	.	.	.	.	.	.
8F\	.	.	16cc\	.	16aa\LL	.	.	.	.	.	.	.	.
.	.	.	16cc\	.	16aa\	.	.	.	.	.	.	.	.
8C\J	.	.	16cc\	.	16bb-\	.	.	.	.	8gg\	.	8bb-X\	.
.	.	.	16cc\JJ	.	16bb-\JJ	.	.	.	.	.	.	.	.
!	!	!	!	!	!LO:LB:g=original	!	!	!	!	!	!	!	!
=61	=61	=61	=61	=61	=61	=61	=61	=61	=61	=61	=61	=61	=61
8F\L	.	2ryy	16cc\LL	.	16aa\LL	.	2ryy	2r	.	8ff\L	.	8aa\L	.
.	.	.	16cc\	.	16aa\	.	.	.	.	.	.	.	.
8C\	.	.	16cc\	.	16bb-\	.	.	.	.	8gg\	.	8bb-\	.
.	.	.	16cc\	.	16bb-\JJ	.	.	.	.	.	.	.	.
8F\	.	.	16cc\	.	16aa\LL	.	.	.	.	8ff\	.	8aa\	.
.	.	.	16cc\	.	16aa\	.	.	.	.	.	.	.	.
8C\J	.	.	16cc\	.	16bb-\	.	.	.	.	8gg\J	.	8bb-\J	.
.	.	.	16cc\JJ	.	16bb-\JJ	.	.	.	.	.	.	.	.
=62	=62	=62	=62	=62	=62	=62	=62	=62	=62	=62	=62	=62	=62
8F\L	.	2ryy	16cc\LL	.	16aa\LL	.	2ryy	2r	.	8ff\L	.	8aa\L	.
.	.	.	16cc\	.	16aa\	.	.	.	.	.	.	.	.
8A\	.	.	16cc\	.	16ccc\	.	.	.	.	8aa\	.	8ccc\	.
.	.	.	16cc\	.	16ccc\JJ	.	.	.	.	.	.	.	.
8F\	.	.	16cc\	.	16aa\LL	.	.	.	.	8ff\	.	8aa\	.
.	.	.	16cc\	.	16aa\	.	.	.	.	.	.	.	.
8C\J	.	.	16cc\	.	16bb-\	.	.	.	.	8gg\J	.	8bb-\J	.
.	.	.	16cc\JJ	.	16bb-\JJ	.	.	.	.	.	.	.	.
!	!	!	!	!	!	!	!	!	!	!	!	!LO:LB:g=original	!
=63	=63	=63	=63	=63	=63	=63	=63	=63	=63	=63	=63	=63	=63
8F\L	.	2ryy	16cc\LL	.	16aa\LL	.	2ryy	2r	.	8ff\L	.	8aa\L	.
.	.	.	16cc\	.	16aa\	.	.	.	.	.	.	.	.
8C\	.	.	16cc\	.	16bb-\	.	.	.	.	8gg\	.	8bb-\	.
.	.	.	16cc\	.	16bb-\JJ	.	.	.	.	.	.	.	.
8F\	.	.	16cc\	.	16aa\LL	.	.	.	.	8ff\	.	8aa\	.
.	.	.	16cc\	.	16aa\	.	.	.	.	.	.	.	.
8C\J	.	.	16cc\	.	16bb-\	.	.	.	.	8gg\J	.	8bb-\J	.
.	.	.	16cc\JJ	.	16bb-\JJ	.	.	.	.	.	.	.	.
=64	=64	=64	=64	=64	=64	=64	=64	=64	=64	=64	=64	=64	=64
!	!	!	!	!	!	!	!	!	!	!LO:N:vis=4	!	!	!
8F\L	.	2ryy	16cc\LL	.	16aa\LL	.	2ryy	2r	.	8ff\	.	8aa\	.
.	.	.	16cc\	.	16aa\	.	.	.	.	.	.	.	.
8A\	.	.	16cc\	.	16ff\	.	.	.	.	8r	.	8r	.
.	.	.	16cc\JJ	.	16ff\JJ	.	.	.	.	.	.	.	.
*	*	*	*Xtremolo	*	*	*	*	*	*	*	*	*	*
8B-\	.	.	16f/LL	.	16dd\LL	.	.	.	.	8dd\L	.	8ff\L	.
.	.	.	16f/	.	16dd\	.	.	.	.	.	.	.	.
8G\J	.	.	16b-/	.	16ee\	.	.	.	.	8b-\J	.	8ee\J	.
.	.	.	16b-/JJ	.	16ee\JJ	.	.	.	.	.	.	.	.
!	!	!	!	!	!	!	!	!	!	!LO:PB:g=original	!	!	!
=65	=65	=65	=65	=65	=65	=65	=65	=65	=65	=65	=65	=65	=65
8A\L	.	2ryy	16cc\LL	.	16ff\LL	.	2ryy	2r	.	8cc\L	.	8ff\	.
.	.	.	16cc\	.	16ff\	.	.	.	.	.	.	.	.
8F\	.	.	16a\	.	16aa\	.	.	.	.	8a\	.	8r	.
.	.	.	16a\JJ	.	16aa\JJ	.	.	.	.	.	.	.	.
8B-\	.	.	16f/LL	.	16dd\LL	.	.	.	.	8dd\	.	8ff\L	.
.	.	.	16f/	.	16dd\	.	.	.	.	.	.	.	.
8G\J	.	.	16b-/	.	16ee\	.	.	.	.	8b-\J	.	8ee\J	.
.	.	.	16b-/JJ	.	16ee\JJ	.	.	.	.	.	.	.	.
!LO:LB:g=original	!	!	!	!	!	!	!	!	!	!	!	!	!
=66	=66	=66	=66	=66	=66	=66	=66	=66	=66	=66	=66	=66	=66
*	*	*	*tremolo	*	*	*	*	*	*	*	*	*	*
8A\L	.	2ryy	16cc\LL	.	16ff\LL	.	2ryy	2r	.	4cc\	.	4ff\	.
.	.	.	16cc\	.	16ff\	.	.	.	.	.	.	.	.
8E\	.	.	16cc\	.	16gg\	.	.	.	.	.	.	.	.
.	.	.	16cc\	.	16gg\JJ	.	.	.	.	.	.	.	.
8F\	.	.	16cc\	.	16aa\LL	.	.	.	.	4r	.	4r	.
.	.	.	16cc\	.	16aa\	.	.	.	.	.	.	.	.
8G\J	.	.	16cc\	.	16bb-\	.	.	.	.	.	.	.	.
.	.	.	16cc\JJ	.	16bb-\JJ	.	.	.	.	.	.	.	.
!	!	!	!	!	!LO:LB:g=original	!	!	!	!	!	!	!	!
=67	=67	=67	=67	=67	=67	=67	=67	=67	=67	=67	=67	=67	=67
*tremolo	*	*	*	*	*	*	*	*	*	*	*	*	*
8A\L	.	2ryy	16f/LL	.	16ccc\LL	.	2ryy	2r	.	2cc\	.	2ff\	.
.	.	.	16f/	.	16bb-\	.	.	.	.	.	.	.	.
8A\	.	.	16f/	.	16aa\	.	.	.	.	.	.	.	.
.	.	.	16f/	.	16gg\JJ	.	.	.	.	.	.	.	.
8A\	.	.	16f/	.	16ff\LL	.	.	.	.	.	.	.	.
.	.	.	16f/	.	16ee\	.	.	.	.	.	.	.	.
8A\J	.	.	16f/	.	16dd\	.	.	.	.	.	.	.	.
.	.	.	16f/JJ	.	16cc\JJ	.	.	.	.	.	.	.	.
!	!	!	!LO:LB:g=original	!	!	!	!	!	!	!	!	!	!
=68	=68	=68	=68	=68	=68	=68	=68	=68	=68	=68	=68	=68	=68
8B-\L	.	2ryy	16f/LL	.	4dd\	.	2ryy	2r	.	4dd\	.	4ff\	.
.	.	.	16f/	.	.	.	.	.	.	.	.	.	.
8B-\	.	.	16f/	.	.	.	.	.	.	.	.	.	.
.	.	.	16f/	.	.	.	.	.	.	.	.	.	.
8B-\	.	.	16f/	.	4ddd\ 4dd\	.	.	.	.	4dd\	.	4ff\	.
.	.	.	16f/	.	.	.	.	.	.	.	.	.	.
8B-\J	.	.	16f/	.	.	.	.	.	.	.	.	.	.
.	.	.	16f/JJ	.	.	.	.	.	.	.	.	.	.
=69	=69	=69	=69	=69	=69	=69	=69	=69	=69	=69	=69	=69	=69
8c\L	.	2ryy	16a/LL 16f/	.	4aa\ 4a\	.	2ryy	2r	.	4ff\	.	4aa\	.
.	.	.	16a/ 16f/	.	.	.	.	.	.	.	.	.	.
8c\J	.	.	16a/ 16f/	.	.	.	.	.	.	.	.	.	.
.	.	.	16a/JJ 16f/	.	.	.	.	.	.	.	.	.	.
!	!	!	!	!	!LO:SIC:v:n=2 s=4g\	!	!	!	!	!	!	!	!
8C/L	.	.	16b-/LL 16g/	.	4ee\ 4a\	.	.	.	.	4ee\	.	4gg\	.
.	.	.	16b-/ 16g/	.	.	.	.	.	.	.	.	.	.
8C/J	.	.	16b-/ 16g/	.	.	.	.	.	.	.	.	.	.
.	.	.	16b-/JJ 16g/	.	.	.	.	.	.	.	.	.	.
*	*	*	*Xtremolo	*	*	*	*	*	*	*	*	*	*
=70	=70	=70	=70	=70	=70	=70	=70	=70	=70	=70	=70	=70	=70
!	!LO:DY:a:t=p.	!	!	!	!	!	!	!	!	!	!	!	!
8F\L	p	2ryy	4a/	.	4ff\ 4a\	.	2ryy	2r	.	4ff\	.	4ff\	.
8F\	.	.	.	.	.	.	.	.	.	.	.	.	.
!	!	!	!	!	!	!	!	!	!	!	!	!LO:TX:a:i:t=Solo	!
8F\	.	.	4r	.	8r	.	.	.	.	4r	.	8r	.
!	!	!	!	!	!	!LO:DY:a	!	!	!	!	!	!	!
8F\J	.	.	.	.	8cc\	p	.	.	.	.	.	8ccc\	.
*Xtremolo	*	*	*	*	*	*	*	*	*	*	*	*	*
=71	=71	=71	=71	=71	=71	=71	=71	=71	=71	=71	=71	=71	=71
*	*	*	*	*	*tremolo	*	*	*	*	*	*	*tremolo	*
!	!	!	!	!	!	!	!	!	!	!LO:TX:a:t=18	!	!	!
!	!LO:DY:a	!	!	!LO:DY:a:rj:t=po	!LO:TX:t=....	!	!	!	!	!	!	!	!
(2F\	pp	2ryy	8e/L	p	8cc'\L	.	2ryy	2r	.	2r	.	8ccc\L	.
.	.	.	8c/	.	8cc'\	.	.	.	.	.	.	8ccc\	.
.	.	.	8e/	.	8cc'\	.	.	.	.	.	.	8ccc\	.
.	.	.	8c/J	.	8cc'\J	.	.	.	.	.	.	8ccc\J	.
*	*	*	*	*	*Xtremolo	*	*	*	*	*	*	*Xtremolo	*
=72	=72	=72	=72	=72	=72	=72	=72	=72	=72	=72	=72	=72	=72
2F\	.	2ryy	8f/L	.	(16cc\LL	.	2ryy	2r	.	2r	.	(16ccc\LL	.
.	.	.	.	.	16dd\	.	.	.	.	.	.	16ddd\	.
.	.	.	8c/	.	16cc\	.	.	.	.	.	.	16ccc\	.
.	.	.	.	.	16b-\JJ)	.	.	.	.	.	.	16bb-X\JJ)	.
.	.	.	8f/	.	8.a/L	.	.	.	.	.	.	8.aa\L	.
.	.	.	8c/J	.	.	.	.	.	.	.	.	.	.
.	.	.	.	.	16b-/Jk	.	.	.	.	.	.	16bb-\Jk	.
=73	=73	=73	=73	=73	=73	=73	=73	=73	=73	=73	=73	=73	=73
*	*	*	*	*	*tremolo	*	*	*	*	*	*	*tremolo	*
!	!	!	!	!	!LO:TX:b:t=....	!	!	!	!	!	!	!	!
2F\	.	2ryy	8e/L	.	8g'/L	.	2ryy	2r	.	2r	.	8gg\L	.
.	.	.	8c/	.	8g'/	.	.	.	.	.	.	8gg\	.
.	.	.	8e/	.	8g'/	.	.	.	.	.	.	8gg\	.
.	.	.	8c/J	.	8g'/J	.	.	.	.	.	.	8gg\J	.
*	*	*	*	*	*Xtremolo	*	*	*	*	*	*	*Xtremolo	*
=74	=74	=74	=74	=74	=74	=74	=74	=74	=74	=74	=74	=74	=74
2F\	.	2ryy	8f/L	.	(16a/LL	.	2ryy	2r	.	2r	.	(16aa\LL	.
.	.	.	.	.	16b-/	.	.	.	.	.	.	16bb-\	.
.	.	.	8c/	.	16a/	.	.	.	.	.	.	16aa\	.
.	.	.	.	.	16g/JJ)	.	.	.	.	.	.	16gg\JJ	.
.	.	.	8f/	.	(16f/LL	.	.	.	.	.	.	16ff\LL	.
.	.	.	.	.	16g/	.	.	.	.	.	.	16gg\	.
.	.	.	8c/J	.	16a/	.	.	.	.	.	.	16aa\)	.
.	.	.	.	.	16b-/JJ)	.	.	.	.	.	.	16bb-\JJ	.
!	!	!	!	!	!	!	!	!	!	!	!	!LO:LB:g=original	!
=75	=75	=75	=75	=75	=75	=75	=75	=75	=75	=75	=75	=75	=75
!	!	!	!LO:TX:t=P:problem=tt. 75-78 zapisane repetycją	!	!	!	!	!	!	!	!	!	!
*	*	*	*	*	*tremolo	*	*	*	*	*	*	*tremolo	*
!	!	!	!	!	!LO:TX:t=..	!	!	!	!	!	!	!	!
2F\	.	2ryy	8e/Lyy	.	8cc'\L	.	2ryy	2r	.	2r	.	8ccc\L	.
.	.	.	8c/yy	.	8cc'\	.	.	.	.	.	.	8ccc\	.
.	.	.	8e/yy	.	8cc'\	.	.	.	.	.	.	8ccc\	.
.	.	.	8c/Jyy	.	8cc'\J	.	.	.	.	.	.	8ccc\J	.
*	*	*	*	*	*Xtremolo	*	*	*	*	*	*	*Xtremolo	*
=76	=76	=76	=76	=76	=76	=76	=76	=76	=76	=76	=76	=76	=76
2F\	.	2ryy	8f/Lyy	.	16cc\LL	.	2ryy	2r	.	2r	.	(16ccc\LL	.
.	.	.	.	.	16dd\	.	.	.	.	.	.	16ddd\	.
.	.	.	8c/yy	.	16cc\	.	.	.	.	.	.	16ccc\	.
.	.	.	.	.	16b-\JJ	.	.	.	.	.	.	16bb-\JJ)	.
.	.	.	8f/yy	.	8.a/L	.	.	.	.	.	.	8.aa\L	.
.	.	.	8c/Jyy	.	.	.	.	.	.	.	.	.	.
.	.	.	.	.	16b-/Jk	.	.	.	.	.	.	16bb-\Jk	.
!	!	!	!	!	!LO:LB:g=original	!	!	!	!	!	!	!	!
=77	=77	=77	=77	=77	=77	=77	=77	=77	=77	=77	=77	=77	=77
*	*	*	*	*	*tremolo	*	*	*	*	*	*	*tremolo	*
2F\	.	2ryy	8e/Lyy	.	8g/L	.	2ryy	2r	.	2r	.	8gg\L	.
.	.	.	8c/yy	.	8g/	.	.	.	.	.	.	8gg\	.
.	.	.	8e/yy	.	8g/	.	.	.	.	.	.	8gg\	.
.	.	.	8c/Jyy	.	8g/J	.	.	.	.	.	.	8gg\J	.
*	*	*	*	*	*Xtremolo	*	*	*	*	*	*	*Xtremolo	*
=78	=78	=78	=78	=78	=78	=78	=78	=78	=78	=78	=78	=78	=78
2F\	.	2ryy	8f/Lyy	.	(16a/LL	.	2ryy	2r	.	2r	.	16aa\LL	.
.	.	.	.	.	16b-/	.	.	.	.	.	.	16bb-\	.
.	.	.	8c/yy	.	16a/	.	.	.	.	.	.	16aa\	.
.	.	.	.	.	16g/JJ)	.	.	.	.	.	.	16gg\JJ	.
.	.	.	8f/yy	.	8f/L	.	.	.	.	.	.	8ff\L	.
.	.	.	8c/Jyy	.	8b-/J	.	.	.	.	.	.	8bb-\J	.
!LO:LB:g=original	!	!	!	!	!	!	!	!	!	!	!	!	!
=79	=79	=79	=79	=79	=79	=79	=79	=79	=79	=79	=79	=79	=79
2F\	.	2ryy	8e/L	.	8g'/L	.	2ryy	2r	.	2r	.	8gg\L	.
.	.	.	8c/	.	8g'/	.	.	.	.	.	.	8gg\	.
.	.	.	8e/	.	(8e/	.	.	.	.	.	.	(8ee\	.
.	.	.	8c/J	.	8cc/J)	.	.	.	.	.	.	8ccc\J)	.
=80	=80	=80	=80	=80	=80	=80	=80	=80	=80	=80	=80	=80	=80
2F\	.	2ryy	8f/L	.	8a'/L	.	2ryy	2r	.	2r	.	8aa\L	.
.	.	.	8c/	.	8a'/	.	.	.	.	.	.	8aa\	.
.	.	.	8f/	.	(8f/	.	.	.	.	.	.	(8ff\	.
.	.	.	8c/J	.	8b-/J)	.	.	.	.	.	.	8bb-\J)	.
=81	=81	=81	=81	=81	=81	=81	=81	=81	=81	=81	=81	=81	=81
!	!	!	!LO:TX:t=P:problem=tt.81-82 zapisane repetycją	!	!	!	!	!	!	!	!	!	!
2F\	.	2ryy	8e/Lyy	.	8g'/L	.	2ryy	2r	.	2r	.	8gg\L	.
.	.	.	8c/yy	.	8g'/	.	.	.	.	.	.	8gg\	.
.	.	.	8e/yy	.	(8e/	.	.	.	.	.	.	(8ee\	.
.	.	.	8c/Jyy	.	8cc/J)	.	.	.	.	.	.	8ccc\J)	.
=82	=82	=82	=82	=82	=82	=82	=82	=82	=82	=82	=82	=82	=82
2F\)	.	2ryy	8f/Lyy	.	(16a/LL	.	2ryy	2r	.	2r	.	16aa\LL	.
.	.	.	.	.	16b-/	.	.	.	.	.	.	16bb-\	.
.	.	.	8c/yy	.	16a/	.	.	.	.	.	.	16aa\	.
.	.	.	.	.	16g/JJ)	.	.	.	.	.	.	16gg\JJ	.
!	!	!	!	!	!LO:TX:t=P:problem=mixed beam	!	!	!	!	!	!	!	!
.	.	.	8f/yy	.	8f/L	.	.	.	.	.	.	8ff\	.
.	.	.	8c/Jyy	.	8cc\J	.	.	.	.	.	.	8r	.
=83	=83	=83	=83	=83	=83	=83	=83	=83	=83	=83	=83	=83	=83
!	!	!	!	!	!	!	!	!	!	!	!	!LO:TX:a:t=6	!
(2G\	.	2ryy	2f/	.	8bn'\L	.	2ryy	2r	.	2r	.	0r	.
.	.	.	.	.	8b'\J	.	.	.	.	.	.	.	.
.	.	.	.	.	(8g/L	.	.	.	.	.	.	.	.
.	.	.	.	.	8dd/J)	.	.	.	.	.	.	.	.
=84	=84	=84	=84	=84	=84	=84	=84	=84	=84	=84	=84	=84	=84
2c\	.	2ryy	2e/	.	16cc\LL	.	2ryy	2r	.	2r	.	.	.
.	.	.	.	.	16bn\	.	.	.	.	.	.	.	.
.	.	.	.	.	16cc\	.	.	.	.	.	.	.	.
.	.	.	.	.	16dd\JJ	.	.	.	.	.	.	.	.
.	.	.	.	.	8.ee\L	.	.	.	.	.	.	.	.
.	.	.	.	.	16cc\Jk	.	.	.	.	.	.	.	.
=85	=85	=85	=85	=85	=85	=85	=85	=85	=85	=85	=85	=85	=85
2Bn\	.	2ryy	2f/	.	8dd'\L	.	2ryy	2r	.	2r	.	.	.
.	.	.	.	.	8dd'\	.	.	.	.	.	.	.	.
.	.	.	.	.	(8bn\	.	.	.	.	.	.	.	.
.	.	.	.	.	8gg\J)	.	.	.	.	.	.	.	.
!	!	!	!	!	!LO:LB:g=original	!	!	!	!	!	!	!	!
=86	=86	=86	=86	=86	=86	=86	=86	=86	=86	=86	=86	=86	=86
2B-X\)	.	2ryy	2g/	.	16ee\LL	.	2ryy	2r	.	2r	.	.	.
.	.	.	.	.	16dd\	.	.	.	.	.	.	.	.
.	.	.	.	.	16ee\	.	.	.	.	.	.	.	.
.	.	.	.	.	16ff\JJ	.	.	.	.	.	.	.	.
.	.	.	.	.	8.gg\L	.	.	.	.	.	.	.	.
.	.	.	.	.	16ee\Jk	.	.	.	.	.	.	.	.
!	!	!	!LO:LB:g=original	!	!	!	!	!	!	!	!	!	!
=87	=87	=87	=87	=87	=87	=87	=87	=87	=87	=87	=87	=87	=87
!	!	!	!LO:TX:t=P:problem=brak tt.87-88	!	!	!	!	!	!	!	!	!	!
2A\	.	2ryy	2ryy	.	8ff'\L	.	2ryy	2r	.	2r	.	1r	.
.	.	.	.	.	8ff'\	.	.	.	.	.	.	.	.
.	.	.	.	.	(8cc\	.	.	.	.	.	.	.	.
.	.	.	.	.	8aa\J)	.	.	.	.	.	.	.	.
=88	=88	=88	=88	=88	=88	=88	=88	=88	=88	=88	=88	=88	=88
2E\	.	2ryy	2ryy	.	8gg'\L	.	2ryy	2r	.	2r	.	.	.
.	.	.	.	.	8gg'\	.	.	.	.	.	.	.	.
.	.	.	.	.	(8cc\	.	.	.	.	.	.	.	.
.	.	.	.	.	8bb-\J)	.	.	.	.	.	.	.	.
=89	=89	=89	=89	=89	=89	=89	=89	=89	=89	=89	=89	=89	=89
*	*	*	*	*	*	*^	*	*	*	*	*	*	*
*	*	*	*tremolo	*	*	*	*	*	*	*	*	*	*	*
!	!LO:DY:a:t=for.	!	!	!LO:DY:a:rj:t=f.	!	!LO:DY:b:t=fo&colon;	!LO:DY:a:t=fo&colon;	!	!	!	!	!LO:DY:a:rj:t=f.	!	!LO:DY:a:rj
8F\L	f	2ryy	16cc\LL	f	16aa\LL	f	f	2ryy	2r	.	4cc\	f	4.aa\	f
.	.	.	16cc\	.	16aa\	.	.	.	.	.	.	.	.	.
8A\	.	.	16cc\	.	16aa\	.	.	.	.	.	.	.	.	.
.	.	.	16cc\	.	16aa\JJ	.	.	.	.	.	.	.	.	.
8F\	.	.	16cc\	.	16aa\LL	.	.	.	.	.	8r	.	.	.
.	.	.	16cc\	.	16aa\	.	.	.	.	.	.	.	.	.
8C\J	.	.	16cc\	.	16bb-\	.	.	.	.	.	8gg\	.	8bb-\	.
.	.	.	16cc\JJ	.	16bb-\JJ	.	.	.	.	.	.	.	.	.
*	*	*	*	*	*	*v	*v	*	*	*	*	*	*	*
!	!	!	!	!	!	!	!	!	!	!	!	!LO:LB:g=original	!
=90	=90	=90	=90	=90	=90	=90	=90	=90	=90	=90	=90	=90	=90
8F\L	.	2ryy	16cc\LL	.	16aa\LL	.	2ryy	2r	.	8ff\L	.	8aa\L	.
.	.	.	16cc\	.	16aa\	.	.	.	.	.	.	.	.
8C\	.	.	16cc\	.	16bb-\	.	.	.	.	8gg\	.	8bb-\	.
.	.	.	16cc\	.	16bb-\JJ	.	.	.	.	.	.	.	.
8F\	.	.	16cc\	.	16aa\LL	.	.	.	.	8ff\	.	8aa\	.
.	.	.	16cc\	.	16aa\	.	.	.	.	.	.	.	.
8C\J	.	.	16cc\	.	16bb-\	.	.	.	.	8gg\J	.	8bb-\J	.
.	.	.	16cc\JJ	.	16bb-\JJ	.	.	.	.	.	.	.	.
!LO:LB:g=original	!	!	!	!	!	!	!	!	!	!	!	!	!
=91	=91	=91	=91	=91	=91	=91	=91	=91	=91	=91	=91	=91	=91
16F\LL	.	2ryy	16cc\LL	.	16aa\LL	.	2ryy	2r	.	8ff\L	.	8aa\L	.
16G\	.	.	16cc\	.	16bb-\	.	.	.	.	.	.	.	.
16A\	.	.	16cc\	.	16ccc\	.	.	.	.	8aa\	.	8ccc\	.
16G\JJ	.	.	16cc\	.	16bb-\JJ	.	.	.	.	.	.	.	.
8F\L	.	.	16cc\	.	8aa\L	.	.	.	.	8ff\	.	8aa\	.
.	.	.	16cc\	.	.	.	.	.	.	.	.	.	.
8C\J	.	.	16cc\	.	8bb-\J	.	.	.	.	8gg\J	.	8bb-\J	.
.	.	.	16cc\JJ	.	.	.	.	.	.	.	.	.	.
=92	=92	=92	=92	=92	=92	=92	=92	=92	=92	=92	=92	=92	=92
8F\L	.	2ryy	16cc\LL	.	8aa\L	.	2ryy	2r	.	8ff\L	.	8aa\L	.
.	.	.	16cc\	.	.	.	.	.	.	.	.	.	.
8C\	.	.	16cc\	.	8bb-\	.	.	.	.	8gg\	.	8bb-\	.
.	.	.	16cc\	.	.	.	.	.	.	.	.	.	.
8F\	.	.	16cc\	.	8aa\	.	.	.	.	8ff\	.	8aa\	.
.	.	.	16cc\	.	.	.	.	.	.	.	.	.	.
8C\J	.	.	16cc\	.	8bb-\J	.	.	.	.	8gg\J	.	8bb-\J	.
.	.	.	16cc\JJ	.	.	.	.	.	.	.	.	.	.
!	!	!	!	!	!LO:LB:g=original	!	!	!	!	!	!	!	!
=93	=93	=93	=93	=93	=93	=93	=93	=93	=93	=93	=93	=93	=93
*tremolo	*	*	*	*	*tremolo	*	*	*	*	*	*	*	*
8F\L	.	2ryy	16cc\LL	.	16aa\LL	.	2ryy	2r	.	4ff\	.	4aa\	.
.	.	.	16cc\	.	16aa\	.	.	.	.	.	.	.	.
8F\J	.	.	16cc\	.	16aa\	.	.	.	.	.	.	.	.
.	.	.	16cc\JJ	.	16aa\JJ	.	.	.	.	.	.	.	.
8C/L	.	.	16ee\LL	.	16ccc\LL	.	.	.	.	4cc\	.	4ee\	.
.	.	.	16ee\	.	16ccc\	.	.	.	.	.	.	.	.
8C/J	.	.	16ee\	.	16ccc\	.	.	.	.	.	.	.	.
.	.	.	16ee\JJ	.	16ccc\JJ	.	.	.	.	.	.	.	.
!	!	!	!	!	!	!	!	!	!	!LO:LB:g=original	!	!	!
=94	=94	=94	=94	=94	=94	=94	=94	=94	=94	=94	=94	=94	=94
8D\L	.	2ryy	16ff\LL	.	16bbn\LL	.	2ryy	2r	.	4bn\	.	4ff\	.
.	.	.	16ff\	.	16bb\	.	.	.	.	.	.	.	.
8D\J	.	.	16ff\	.	16bb\	.	.	.	.	.	.	.	.
.	.	.	16ff\JJ	.	16bb\JJ	.	.	.	.	.	.	.	.
8E\L	.	.	16gg\LL	.	16bb-X\LL	.	.	.	.	4b-X\	.	4gg\	.
.	.	.	16gg\	.	16bb-\	.	.	.	.	.	.	.	.
8E\J	.	.	16gg\	.	16bb-\	.	.	.	.	.	.	.	.
.	.	.	16gg\JJ	.	16bb-\JJ	.	.	.	.	.	.	.	.
=95	=95	=95	=95	=95	=95	=95	=95	=95	=95	=95	=95	=95	=95
8F\L	.	2ryy	16cc\LL	.	16aa\LL	.	2ryy	2r	.	4cc\	.	4aa\	.
.	.	.	16cc\	.	16aa\	.	.	.	.	.	.	.	.
8F\J	.	.	16cc\	.	16aa\	.	.	.	.	.	.	.	.
.	.	.	16cc\JJ	.	16aa\JJ	.	.	.	.	.	.	.	.
8A\L	.	.	16cc#X\LL	.	16aa\LL	.	.	.	.	4cc#X\	.	4aa\	.
.	.	.	16cc#\	.	16aa\	.	.	.	.	.	.	.	.
8A\J	.	.	16cc#\	.	16aa\	.	.	.	.	.	.	.	.
.	.	.	16cc#\JJ	.	16aa\JJ	.	.	.	.	.	.	.	.
=96	=96	=96	=96	=96	=96	=96	=96	=96	=96	=96	=96	=96	=96
8Bn\L	.	2ryy	16dd\LL	.	16gg#X\LL	.	2ryy	2r	.	4dd\	.	4gg#X\	.
.	.	.	16dd\	.	16gg#\	.	.	.	.	.	.	.	.
8B\J	.	.	16dd\	.	16gg#\	.	.	.	.	.	.	.	.
.	.	.	16dd\JJ	.	16gg#\JJ	.	.	.	.	.	.	.	.
8c#X\L	.	.	16ee\LL	.	16ggn\LL	.	.	.	.	4ee\	.	4ggn\	.
.	.	.	16ee\	.	16gg\	.	.	.	.	.	.	.	.
8c#\J	.	.	16ee\	.	16gg\	.	.	.	.	.	.	.	.
.	.	.	16ee\JJ	.	16gg\JJ	.	.	.	.	.	.	.	.
*Xtremolo	*	*	*Xtremolo	*	*Xtremolo	*	*	*	*	*	*	*	*
=97	=97	=97	=97	=97	=97	=97	=97	=97	=97	=97	=97	=97	=97
8d\L	.	2ryy	16dd\LL	.	16ff\LL	.	2ryy	2r	.	8a/L	.	8ff\L	.
.	.	.	16a\	.	16a\	.	.	.	.	.	.	.	.
16A\L	.	.	16a\	.	16ff\	.	.	.	.	16a/L	.	16ff\L	.
16F\JJ	.	.	16a\JJ	.	16a\JJ	.	.	.	.	16a/JJ	.	16ff\JJ	.
!	!	!	!	!	!	!	!	!	!	!LO:TX:t=P:problem=mixed beam	!	!	!
8D/L	.	.	16f/LL	.	16ff\LL	.	.	.	.	8a/L	.	8ff\L	.
.	.	.	16a/	.	16a\	.	.	.	.	.	.	.	.
8AA/J	.	.	16e/	.	16gg\	.	.	.	.	8ee\J	.	8gg\J	.
.	.	.	16a/JJ	.	16a\JJ	.	.	.	.	.	.	.	.
=98	=98	=98	=98	=98	=98	=98	=98	=98	=98	=98	=98	=98	=98
8D/L	.	2ryy	16f/LL	.	16ff\LL	.	2ryy	2r	.	8dd\L	.	8ff\L	.
.	.	.	16a/	.	16ff\	.	.	.	.	.	.	.	.
8AA/	.	.	16e/	.	16gg\	.	.	.	.	8ee\	.	8gg\	.
.	.	.	16a/JJ	.	16gg\JJ	.	.	.	.	.	.	.	.
8D/	.	.	16f/LL	.	16ff\LL	.	.	.	.	8dd\	.	8ff\	.
.	.	.	16a/	.	16ff\	.	.	.	.	.	.	.	.
8AA/J	.	.	16e/	.	16gg\	.	.	.	.	8ee\J	.	8gg\J	.
.	.	.	16a/JJ	.	16gg\JJ	.	.	.	.	.	.	.	.
!LO:LB:g=original	!	!	!LO:LB:g=original	!	!	!	!	!	!	!	!	!	!
=99	=99	=99	=99	=99	=99	=99	=99	=99	=99	=99	=99	=99	=99
16D\LL	.	2ryy	16f/LL	.	16ff\LL	.	2ryy	2r	.	8dd\L	.	8ff\L	.
16F\	.	.	16a/	.	16a\	.	.	.	.	.	.	.	.
16A\	.	.	16f/	.	16dd\	.	.	.	.	8ff\	.	8aa\	.
16F\JJ	.	.	16a/JJ	.	16ff\JJ	.	.	.	.	.	.	.	.
8D/L	.	.	16f/LL	.	16aa\LL	.	.	.	.	8dd\	.	8ff\	.
.	.	.	16a/	.	16a\	.	.	.	.	.	.	.	.
8AA/J	.	.	16e/	.	16gg\	.	.	.	.	8ee\J	.	8gg\J	.
.	.	.	16a/JJ	.	16a\JJ	.	.	.	.	.	.	.	.
=100	=100	=100	=100	=100	=100	=100	=100	=100	=100	=100	=100	=100	=100
8D/L	.	2ryy	16f/LL	.	16ff\LL	.	2ryy	2r	.	8dd\L	.	8ff\L	.
.	.	.	16a/	.	16a\	.	.	.	.	.	.	.	.
8AA/	.	.	16e/	.	16gg\	.	.	.	.	8ee\	.	8gg\	.
.	.	.	16a/JJ	.	16a\JJ	.	.	.	.	.	.	.	.
8D/	.	.	16f/LL	.	16ff\LL	.	.	.	.	8dd\	.	8ff\	.
.	.	.	16a/	.	16a\	.	.	.	.	.	.	.	.
8AA/J	.	.	16e/	.	16gg\	.	.	.	.	8ee\J	.	8gg\J	.
.	.	.	16a/JJ	.	16a\JJ	.	.	.	.	.	.	.	.
=101	=101	=101	=101	=101	=101	=101	=101	=101	=101	=101	=101	=101	=101
*tremolo	*	*	*tremolo	*	*tremolo	*	*	*	*	*	*	*	*
8D\L	.	2ryy	16f/LL	.	16ff\LL	.	2ryy	2r	.	4dd\	.	4ff\	.
.	.	.	16f/	.	16ff\	.	.	.	.	.	.	.	.
8D\J	.	.	16f/	.	16ff\	.	.	.	.	.	.	.	.
.	.	.	16f/JJ	.	16ff\JJ	.	.	.	.	.	.	.	.
8A\L	.	.	16g/LL	.	16cc#X\LL	.	.	.	.	4ee\	.	4gg\	.
.	.	.	16g/	.	16cc#\	.	.	.	.	.	.	.	.
8A\J	.	.	16g/	.	16cc#\	.	.	.	.	.	.	.	.
.	.	.	16g/JJ	.	16cc#\JJ	.	.	.	.	.	.	.	.
!	!	!	!	!	!LO:LB:g=original	!	!	!	!	!	!	!LO:LB:g=original	!
=102	=102	=102	=102	=102	=102	=102	=102	=102	=102	=102	=102	=102	=102
8B-\L	.	2ryy	16f/LL	.	16dd\LL	.	2ryy	2r	.	4dd\	.	4ff\	.
.	.	.	16f/	.	16dd\	.	.	.	.	.	.	.	.
8B-\J	.	.	16f/	.	16dd\	.	.	.	.	.	.	.	.
.	.	.	16f/JJ	.	16dd\JJ	.	.	.	.	.	.	.	.
8BB-/L	.	.	16dd\LL	.	16gg#X\LL	.	.	.	.	4dd\	.	4gg#X\	.
.	.	.	16dd\	.	16gg#\	.	.	.	.	.	.	.	.
8BB-/J	.	.	16dd\	.	16gg#\	.	.	.	.	.	.	.	.
.	.	.	16dd\JJ	.	16gg#\JJ	.	.	.	.	.	.	.	.
=103	=103	=103	=103	=103	=103	=103	=103	=103	=103	=103	=103	=103	=103
8AA/L	.	2ryy	16cc#X\LL	.	16aa\LL	.	2ryy	2r	.	4cc#X\	.	4aa\	.
.	.	.	16cc#\	.	16aa\	.	.	.	.	.	.	.	.
8AA/J	.	.	16cc#\	.	16aa\	.	.	.	.	.	.	.	.
.	.	.	16cc#\JJ	.	16aa\JJ	.	.	.	.	.	.	.	.
8C#X/L	.	.	16a/LL	.	16ee\LL	.	.	.	.	4a/	.	4ee\	.
.	.	.	16a/	.	16ee\	.	.	.	.	.	.	.	.
8C#/J	.	.	16a/	.	16ee\	.	.	.	.	.	.	.	.
.	.	.	16a/JJ	.	16ee\JJ	.	.	.	.	.	.	.	.
=104	=104	=104	=104	=104	=104	=104	=104	=104	=104	=104	=104	=104	=104
8D\L	.	2ryy	16a/LL	.	16ff\LL	.	2ryy	2r	.	4a/	.	4ff\	.
.	.	.	16a/	.	16ff\	.	.	.	.	.	.	.	.
8D\J	.	.	16a/	.	16ff\	.	.	.	.	.	.	.	.
.	.	.	16a/JJ	.	16ff\JJ	.	.	.	.	.	.	.	.
!	!	!	!	!	!	!	!	!	!	!LO:TX:a:t=d	!	!	!
8BB-/L	.	.	16d/LL	.	16g#X/LL	.	.	.	.	4dd\	.	4gg#X\	.
.	.	.	16d/	.	16g#/	.	.	.	.	.	.	.	.
8BB-/J	.	.	16d/	.	16g#/	.	.	.	.	.	.	.	.
.	.	.	16d/JJ	.	16g#/JJ	.	.	.	.	.	.	.	.
*Xtremolo	*	*	*Xtremolo	*	*Xtremolo	*	*	*	*	*	*	*	*
!	!	!	!	!	!	!	!	!LO:LB:g=original	!	!LO:LB:g=original	!	!	!
=105	=105	=105	=105	=105	=105	=105	=105	=105	=105	=105	=105	=105	=105
!	!	!	!	!	!LO:TX:t=P:problem=mixed beam	!	!	!	!LO:DY:a:rj	!	!	!	!
8AA/L	.	2ryy	16c#X/LL	.	16a/LL	.	2ryy	8a\L	f	4cc#X\	.	4aa\	.
.	.	.	16c#/	.	16a/	.	.	.	.	.	.	.	.
8AA/	.	.	16a/	.	16aa\	.	.	16a\L	.	.	.	.	.
.	.	.	16a/JJ	.	16aa\JJ	.	.	16a\JJ	.	.	.	.	.
8C#X/	.	.	16e/LL	.	16ee\LL	.	.	8a\L	.	4r	.	4r	.
.	.	.	16e/	.	16ee\	.	.	.	.	.	.	.	.
8E/J	.	.	16c#X/	.	16cc#X\	.	.	8a\J	.	.	.	.	.
.	.	.	16c#/JJ	.	16cc#\JJ	.	.	.	.	.	.	.	.
!	!	!	!LO:LB:g=original	!	!	!	!	!	!	!	!	!	!
=106	=106	=106	=106	=106	=106	=106	=106	=106	=106	=106	=106	=106	=106
*	*	*	*	*	*tremolo	*	*	*tremolo	*	*	*	*	*
8A\L	.	2ryy	16A/LL	.	16a/LL	.	2ryy	8a\L	.	4cc#X\	.	4aa\	.
.	.	.	16A/	.	16a/	.	.	.	.	.	.	.	.
8A\	.	.	16a/	.	16a/	.	.	8a\	.	.	.	.	.
.	.	.	16a/JJ	.	16a/JJ	.	.	.	.	.	.	.	.
*	*	*	*	*	*Xtremolo	*	*	*	*	*	*	*	*
8E\	.	.	16e/LL	.	16e/LL	.	.	8a\	.	4cc#\	.	4aa\	.
.	.	.	16e/	.	16e/	.	.	.	.	.	.	.	.
8C#X\J	.	.	16c#X/	.	16c#X/	.	.	8a\J	.	.	.	.	.
.	.	.	16c#/JJ	.	16c#/JJ	.	.	.	.	.	.	.	.
*	*	*	*	*	*	*	*	*Xtremolo	*	*	*	*	*
!LO:LB:g=original	!	!	!	!	!	!	!	!	!	!	!	!	!
=107	=107	=107	=107	=107	=107	=107	=107	=107	=107	=107	=107	=107	=107
!LO:TX:t=P:problem=mixed beam	!	!	!	!	!	!	!	!LO:TX:t=P:problem=tt. 107-108 zapisane repetycją	!	!	!	!	!
8AA/L	.	2ryy	4A/	.	4A/	.	2ryy	8a\Lyy	.	4cc#X\	.	4aa\	.
8A\	.	.	.	.	.	.	.	16a\Lyy	.	.	.	.	.
.	.	.	.	.	.	.	.	16a\JJyy	.	.	.	.	.
8E\	.	.	4r	.	4r	.	.	8a\Lyy	.	4r	.	4r	.
8C#X\J	.	.	.	.	.	.	.	8a\Jyy	.	.	.	.	.
=108	=108	=108	=108	=108	=108	=108	=108	=108	=108	=108	=108	=108	=108
!LO:TX:t=P:problem=mixed beam	!	!	!	!	!	!	!	!	!	!	!	!	!
*	*	*	*	*	*	*	*	*tremolo	*	*	*	*	*
8AA/L	.	2ryy	4cc#X/ 4e/ 4A/	.	4aa\ 4cc#X\	.	2ryy	8a\Lyy	.	4cc#X\	.	4aa\	.
8A\	.	.	.	.	.	.	.	8a\yy	.	.	.	.	.
8E\	.	.	4r	.	4r	.	.	8a\yy	.	4r	.	4r	.
8C#X\J	.	.	.	.	.	.	.	8a\Jyy	.	.	.	.	.
*	*	*	*	*	*	*	*	*Xtremolo	*	*	*	*	*
=109	=109	=109	=109	=109	=109	=109	=109	=109	=109	=109	=109	=109	=109
!LO:TX:t=P:problem=mixed beam	!LO:DY:a:t=p.	!	!	!	!	!	!	!	!	!	!	!	!
8AA/L	p	2ryy	4cc#X/ 4e/ 4A/	.	4aa\ 4cc#X\	.	2ryy	4a\	.	4a/	.	4aa\	.
8A\	.	.	.	.	.	.	.	.	.	.	.	.	.
!	!	!	!	!	!LO:TX:b:i:t=Werte	!	!	!	!	!	!	!	!
8A\	.	.	4r	.	4r	pp	.	4r	.	4r	.	4r	.
8A\J	.	.	.	.	.	.	.	.	.	.	.	.	.
!	!	!	!	!	!LO:PB:g=original	!	!	!	!	!	!	!	!
=110	=110	=110	=110	=110	=110	=110	=110	=110	=110	=110	=110	=110	=110
*tremolo	*	*	*	*	*	*	*	*	*	*	*	*	*
!	!	!	!	!LO:DY:a:rj	!	!LO:DY:a:rj	!	!LO:TX:a:t=1	!	!	!LO:DY:a:rj	!	!LO:DY:a:rj
8A\L	.	2ryy	2a/	p	(4.aa\	pp	2ryy	2r	.	2ff#X\	p	2aa\	p
8A\	.	.	.	.	.	.	.	.	.	.	.	.	.
8A\	.	.	.	.	.	.	.	.	.	.	.	.	.
8A\J	.	.	.	.	8gg#X\)	.	.	.	.	.	.	.	.
=111	=111	=111	=111	=111	=111	=111	=111	=111	=111	=111	=111	=111	=111
8A\L	.	2ryy	2f#X/	.	8aa\L	.	2ryy	4A/	.	2dd\	.	2ff#X\	.
8A\	.	.	.	.	8aa\	.	.	.	.	.	.	.	.
8A\	.	.	.	.	(8aa\	.	.	4r	.	.	.	.	.
8A\J	.	.	.	.	8ff#X\J)	.	.	.	.	.	.	.	.
=112	=112	=112	=112	=112	=112	=112	=112	=112	=112	=112	=112	=112	=112
!	!	!	!	!	!	!	!	!LO:TX:a:t=1	!	!	!	!	!
8A\L	.	2ryy	2g/	.	(4.ggn\	.	2ryy	2r	.	2ee\	.	2gg\	.
8A\	.	.	.	.	.	.	.	.	.	.	.	.	.
8A\	.	.	.	.	.	.	.	.	.	.	.	.	.
8A\J	.	.	.	.	8ff#X\)	.	.	.	.	.	.	.	.
=113	=113	=113	=113	=113	=113	=113	=113	=113	=113	=113	=113	=113	=113
8A\L	.	2ryy	2e/	.	8gg\L	.	2ryy	4A/	.	2cc#X\	.	2ee\	.
8A\	.	.	.	.	8gg\	.	.	.	.	.	.	.	.
8A\	.	.	.	.	8gg\	.	.	4r	.	.	.	.	.
8A\J	.	.	.	.	8ee\J	.	.	.	.	.	.	.	.
*Xtremolo	*	*	*	*	*	*	*	*	*	*	*	*	*
=114	=114	=114	=114	=114	=114	=114	=114	=114	=114	=114	=114	=114	=114
!	!	!	!	!	!	!	!	!LO:SIC:v:s=4cc\	!	!	!	!	!
4A\	.	2ryy	4f#X/	.	8ff#X'\L	.	2ryy	4e\	.	4dd\	.	4ff#X\	.
.	.	.	.	.	8ff#'\	.	.	.	.	.	.	.	.
!	!	!	!	!	!	!	!	!LO:SIC:v:s=4cc\	!	!	!	!	!
8r	.	.	8r	.	(8ff#\	.	.	4e\	.	8r	.	8r	.
8A\	.	.	8g/	.	8gg\J)	.	.	.	.	8ee\	.	8gg\	.
=115	=115	=115	=115	=115	=115	=115	=115	=115	=115	=115	=115	=115	=115
4A\	.	2ryy	4e/	.	8ee\L	.	2ryy	4e\	.	4cc#X\	.	4ee\	.
.	.	.	.	.	8ee\	.	.	.	.	.	.	.	.
8r	.	.	8r	.	8ee\	.	.	4r	.	8r	.	8r	.
8A\	.	.	8a/	.	8aa\J	.	.	.	.	8cc#\	.	8aa\	.
=116	=116	=116	=116	=116	=116	=116	=116	=116	=116	=116	=116	=116	=116
!	!	!	!	!	!	!	!	!LO:SIC:v:s=4cc\	!	!	!	!	!
4A\	.	2ryy	4f#X/	.	8ff#X\L	.	2ryy	4e\	.	4dd\	.	4ff#X\	.
.	.	.	.	.	8ff#\	.	.	.	.	.	.	.	.
8r	.	.	8r	.	8ff#\	.	.	4r	.	8r	.	8r	.
8A\	.	.	8g/	.	8gg\J	.	.	.	.	8ee\	.	8gg\	.
!LO:LB:g=original	!	!	!	!	!	!	!	!	!	!LO:LB:g=original	!	!	!
=117	=117	=117	=117	=117	=117	=117	=117	=117	=117	=117	=117	=117	=117
!	!	!	!	!	!	!	!	!LO:TX:t=P:problem=mixed beam	!LO:DY:a:rj	!	!	!	!
8A\L	.	2ryy	8e/L	.	8ee\L	.	2ryy	8e\L	p	8cc#X\L	.	8ee\L	.
8A\	.	.	8e/	.	8ee\	.	.	8A/	.	8cc#\	.	8ee\	.
8A\J	.	.	8e/J	.	8ee\	.	.	8A/	.	8cc#\J	.	8ee\J	.
8r	.	.	8r	.	8aa\J	.	.	8A/J	.	8r	.	8r	.
!	!	!	!	!	!	!	!	!	!	!	!	!LO:LB:g=original	!
=118||	=118||	=118||	=118||	=118||	=118||	=118||	=118||	=118||	=118||	=118||	=118||	=118||	=118||
*k[f#c#]	*	*k[f#c#]	*	*	*k[f#c#]	*	*	*	*	*k[f#c#]	*	*k[f#c#]	*
!	!	!	!	!	!LO:TX:a:t=1	!	!	!	!	!LO:TX:a:t=10	!	!LO:TX:a:t=10	!
!LO:TX:a:t=major	!	!	!LO:TX:a:t=1	!	!LO:TX:a:t=Mayor	!	!	!	!	!LO:TX:a:t=Maior	!	!LO:TX:a:t=Maior	!
2r	.	2ryy	2r	.	2r	.	2ryy	2A/	.	2r	.	0r	.
=119	=119	=119	=119	=119	=119	=119	=119	=119	=119	=119	=119	=119	=119
4r	.	2ryy	4r	.	4r	.	2ryy	2A/	.	2r	.	.	.
8r	.	.	8r	.	8r	.	.	.	.	.	.	.	.
!	!	!	!LO:TX:t=P:problem=dźwięk nieczytelny	!	!	!	!	!	!	!	!	!	!
!	!	!	!LO:TX:b:i:t=Werte	!	!	!	!	!	!	!	!	!	!
!	!LO:DY:a	!	!LO:TX:a:i:t=Mayor	!	!	!LO:DY:a:rj:t=p.	!	!	!	!	!	!	!
8r	p	.	8ryy	.	8aa\	p	.	.	.	.	.	.	.
!	!	!	!LO:PB:g=original	!	!	!LO:LB:g=original	!	!	!	!	!	!	!
=120	=120	=120	=120	=120	=120	=120	=120	=120	=120	=120	=120	=120	=120
*	*	*	*k[f#c#]	*	*	*	*	*	*	*	*	*	*
!	!	!	!LO:TX:a:t=Minor	!	!	!LO:DY:a:rj	!	!LO:TX:t=P:problem=tt. 120-121 zapisane repetycją	!	!	!	!	!
8d\	.	2ryy	8f#/L	.	8aa\L	p	2ryy	2A/yy	.	2r	.	.	.
!	!	!	!	!LO:DY:a:t=p.	!	!	!	!	!	!	!	!	!
8r	.	.	8A/	p	8aa\	.	.	.	.	.	.	.	.
8c#\	.	.	8g/	.	8aa\	.	.	.	.	.	.	.	.
8r	.	.	8A/J	.	8aa\J	.	.	.	.	.	.	.	.
=121	=121	=121	=121	=121	=121	=121	=121	=121	=121	=121	=121	=121	=121
4d\	.	2ryy	8f#/L	.	16aa\LL	.	2ryy	2A/yy	.	2r	.	.	.
.	.	.	.	.	(16gg\	.	.	.	.	.	.	.	.
.	.	.	8A/	.	16ff#\)	.	.	.	.	.	.	.	.
.	.	.	.	.	16ee\JJ	.	.	.	.	.	.	.	.
!	!	!	!	!	!LO:N:vis=4.	!	!	!	!	!	!	!	!
8r	.	.	8f#/	.	8.dd\	.	.	.	.	.	.	.	.
8A\	.	.	8a/J	.	.	.	.	.	.	.	.	.	.
!	!	!	!	!	!LO:N:vis=8	!	!	!	!	!	!	!	!
.	.	.	.	.	16ee\	.	.	.	.	.	.	.	.
!	!	!	!	!	!	!	!	!LO:LB:g=original	!	!	!	!	!
=122	=122	=122	=122	=122	=122	=122	=122	=122	=122	=122	=122	=122	=122
8d\	.	2ryy	8a/L	.	(8ff#\L	.	2ryy	4A/	.	2r	.	0r	.
8r	.	.	8f#/	.	8dd\	.	.	.	.	.	.	.	.
8G\	.	.	8d/	.	8b\)	.	.	4r	.	.	.	.	.
8r	.	.	8e/J	.	8gg\J	.	.	.	.	.	.	.	.
=123	=123	=123	=123	=123	=123	=123	=123	=123	=123	=123	=123	=123	=123
4A\	.	2ryy	8f#/L	.	4ff#\	.	2ryy	4A/	.	2r	.	.	.
.	.	.	8a/	.	.	.	.	.	.	.	.	.	.
4AA/	.	.	8e/	.	8ff#\L	.	.	4r	.	.	.	.	.
.	.	.	8a/J	.	8aa\J	.	.	.	.	.	.	.	.
=124	=124	=124	=124	=124	=124	=124	=124	=124	=124	=124	=124	=124	=124
!	!	!	!	!	!	!	!	!LO:TX:t=P:problem=tt.124-125 zapisane repetycją	!	!	!	!	!
8d\	.	2ryy	8f#/L	.	8aa\L	.	2ryy	4A/yy	.	2r	.	.	.
8r	.	.	8A/	.	8aa\	.	.	.	.	.	.	.	.
8c#\	.	.	8g/	.	8aa\	.	.	4ryy	.	.	.	.	.
8r	.	.	8A/J	.	8aa\J	.	.	.	.	.	.	.	.
!LO:PB:g=original	!	!	!	!	!	!	!	!	!	!	!	!	!
=125	=125	=125	=125	=125	=125	=125	=125	=125	=125	=125	=125	=125	=125
4d\	.	2ryy	8f#/L	.	16aa\LL	.	2ryy	4A/yy	.	2r	.	.	.
.	.	.	.	.	16gg\	.	.	.	.	.	.	.	.
.	.	.	8A/	.	16ff#\	.	.	.	.	.	.	.	.
.	.	.	.	.	16ee\JJ	.	.	.	.	.	.	.	.
8r	.	.	8f#/	.	8.dd\L	.	.	4ryy	.	.	.	.	.
8d\	.	.	8a/J	.	.	.	.	.	.	.	.	.	.
.	.	.	.	.	16ff#\Jk	.	.	.	.	.	.	.	.
=126	=126	=126	=126	=126	=126	=126	=126	=126	=126	=126	=126	=126	=126
!LO:TX:t=P:problem=mixed beam	!	!	!	!	!	!	!	!LO:TX:a:t=2	!	!	!	!	!
8c#\L	.	2ryy	8a/L	.	8ee\L	.	2ryy	1r	.	2r	.	1r	.
8d\	.	.	8f#/	.	8dd\	.	.	.	.	.	.	.	.
8e\	.	.	8e/	.	8cc#\	.	.	.	.	.	.	.	.
8E/J	.	.	8d/J	.	8b\J	.	.	.	.	.	.	.	.
=127	=127	=127	=127	=127	=127	=127	=127	=127	=127	=127	=127	=127	=127
!LO:TX:t=P:problem=mixed beam	!	!	!	!	!	!	!	!	!	!	!	!	!
8A\L	.	2ryy	4d/	.	4b/	.	2ryy	.	.	2r	.	.	.
8E\	.	.	.	.	.	.	.	.	.	.	.	.	.
8AA/J	.	.	8c#/	.	8a/	.	.	.	.	.	.	.	.
!	!	!	!	!	!	!LO:DY:rj:t=for	!	!	!	!	!	!	!
8r	.	.	8r	.	8aa\	f	.	.	.	.	.	.	.
=128	=128	=128	=128	=128	=128	=128	=128	=128	=128	=128	=128	=128	=128
!	!	!	!	!	!	!	!	!LO:TX:t=P:problem=zbędne 8 taktów	!	!	!	!	!
!LO:TX:t=P:problem=brak tt.128-135	!	!	!LO:TX:t=P:problem=brak tt.128-135	!	!LO:TX:t=P:problem=brak tt.128-135	!	!	!LO:TX:a:t=8	!	!LO:TX:t=P:problem=brak tt.128-135	!	!LO:TX:t=P:problem=brak tt.128-135	!
2ryy	.	2ryy	2ryy	.	2ryy	.	2ryy	2r	.	2ryy	.	2ryy	.
=129	=129	=129	=129	=129	=129	=129	=129	=129	=129	=129	=129	=129	=129
2ryy	.	2ryy	2ryy	.	2ryy	.	2ryy	2r	.	2ryy	.	2ryy	.
=130	=130	=130	=130	=130	=130	=130	=130	=130	=130	=130	=130	=130	=130
2ryy	.	2ryy	2ryy	.	2ryy	.	2ryy	2r	.	2ryy	.	2ryy	.
=131	=131	=131	=131	=131	=131	=131	=131	=131	=131	=131	=131	=131	=131
2ryy	.	2ryy	2ryy	.	2ryy	.	2ryy	2r	.	2ryy	.	2ryy	.
=132	=132	=132	=132	=132	=132	=132	=132	=132	=132	=132	=132	=132	=132
2ryy	.	2ryy	2ryy	.	2ryy	.	2ryy	2r	.	2ryy	.	2ryy	.
=133	=133	=133	=133	=133	=133	=133	=133	=133	=133	=133	=133	=133	=133
2ryy	.	2ryy	2ryy	.	2ryy	.	2ryy	2r	.	2ryy	.	2ryy	.
=134	=134	=134	=134	=134	=134	=134	=134	=134	=134	=134	=134	=134	=134
2ryy	.	2ryy	2ryy	.	2ryy	.	2ryy	2r	.	2ryy	.	2ryy	.
=135	=135	=135	=135	=135	=135	=135	=135	=135	=135	=135	=135	=135	=135
2ryy	.	2ryy	2ryy	.	2ryy	.	2ryy	2r	.	2ryy	.	2ryy	.
=136	=136	=136	=136	=136	=136	=136	=136	=136	=136	=136	=136	=136	=136
!	!LO:DY:t=for	!	!	!LO:DY:a:rj:t=f.	!	!	!	!	!LO:DY:a:rj:t=f.	!	!	!	!LO:DY:a:rj
8d\L	f	2ryy	8a/L 8f#/	f	8aa\L	.	2ryy	8f#\L	f	8dd\L	.	8ff#\L	f
8d\	.	.	8a/J 8f#/	.	8aa\	.	.	8f#\	.	8dd\	.	8ff#\	.
8c#\	.	.	8a/L 8e/	.	8aa\	.	.	8e\	.	8ee\	.	8gg\	.
8c#\J	.	.	8a/J 8e/	.	8aa\J	.	.	8d\J	.	8ee\J	.	8gg\J	.
!	!	!	!LO:LB:g=original	!	!LO:LB:g=original	!	!	!	!	!	!	!	!
=137	=137	=137	=137	=137	=137	=137	=137	=137	=137	=137	=137	=137	=137
4d\	.	2ryy	4a/ 4f#/	.	16aa\LL	.	2ryy	4d\	.	4dd\	.	4ff#\	.
.	.	.	.	.	16gg\	.	.	.	.	.	.	.	.
.	.	.	.	.	16ff#\	.	.	.	.	.	.	.	.
.	.	.	.	.	16ee\JJ	.	.	.	.	.	.	.	.
8r	.	.	8r	.	16dd\LL	.	.	8r	.	8r	.	8r	.
.	.	.	.	.	16cc#\	.	.	.	.	.	.	.	.
8A\	.	.	8a/ 8e/	.	16dd\	.	.	8e\	.	8cc#\	.	8ee\	.
.	.	.	.	.	16ee\JJ	.	.	.	.	.	.	.	.
=138	=138	=138	=138	=138	=138	=138	=138	=138	=138	=138	=138	=138	=138
!LO:TX:t=P:problem=mixed beam	!	!	!	!	!	!	!	!	!	!	!	!	!
8d\L	.	2ryy	8a/L 8f#/	.	16ff#\LL	.	2ryy	8f#\L	.	8dd\L	.	8ff#\L	.
.	.	.	.	.	16gg\	.	.	.	.	.	.	.	.
8D/	.	.	8a/ 8f#/	.	16aa\	.	.	8d\J	.	8dd\	.	8ff#\	.
.	.	.	.	.	16ff#\JJ	.	.	.	.	.	.	.	.
8E/	.	.	8a/ 8e/	.	16gg\LL	.	.	8r	.	8ee\	.	8gg\	.
.	.	.	.	.	16aa\	.	.	.	.	.	.	.	.
8E/J	.	.	8a/J 8e/	.	16bb\	.	.	8e\	.	8ee\J	.	8gg\J	.
.	.	.	.	.	16gg\JJ	.	.	.	.	.	.	.	.
=139	=139	=139	=139	=139	=139	=139	=139	=139	=139	=139	=139	=139	=139
!LO:TX:t=P:problem=mixed beam	!	!	!	!	!	!	!	!	!	!	!	!	!
8A\L	.	2ryy	8a/L 8f#/	.	16ff#\LL	.	2ryy	4f#\	.	4dd\	.	4ff#\	.
.	.	.	.	.	16gg\	.	.	.	.	.	.	.	.
8A\	.	.	8a/ 8f#/	.	16aa\	.	.	.	.	.	.	.	.
.	.	.	.	.	16ff#\JJ	.	.	.	.	.	.	.	.
8AA/J	.	.	8a/J 8e/	.	16ee\LL	.	.	8e\	.	8cc#\	.	8ee\	.
.	.	.	.	.	16a\	.	.	.	.	.	.	.	.
8r	.	.	8r	.	16cc#\	.	.	8r	.	8r	.	8r	.
.	.	.	.	.	16ee\JJ	.	.	.	.	.	.	.	.
=140	=140	=140	=140	=140	=140	=140	=140	=140	=140	=140	=140	=140	=140
8d\L	.	2ryy	8a/L 8f#/	.	8aa\L	.	2ryy	8f#\L	.	8dd\L	.	8ff#\L	.
8d\	.	.	8a/ 8f#/	.	8aa\J 8a\	.	.	8f#\	.	8dd\	.	8ff#\J	.
8c#\	.	.	8a/ 8e/	.	8aa\L 8a\	.	.	8e\	.	8ee\	.	8gg\L	.
8c#\J	.	.	8a/J 8e/	.	8aa\J 8a\	.	.	8e\J	.	8ee\J	.	8gg\J	.
!LO:LB:g=original	!	!	!	!	!	!	!	!	!	!	!	!	!
=141	=141	=141	=141	=141	=141	=141	=141	=141	=141	=141	=141	=141	=141
4d\	.	2ryy	4a/ 4f#/	.	16aa\LL	.	2ryy	4d\	.	4dd\	.	4ff#\	.
.	.	.	.	.	16gg\	.	.	.	.	.	.	.	.
.	.	.	.	.	16ff#\	.	.	.	.	.	.	.	.
.	.	.	.	.	16ee\JJ	.	.	.	.	.	.	.	.
8r	.	.	8r	.	16dd\LL	.	.	8r	.	8r	.	8r	.
.	.	.	.	.	16ff#\	.	.	.	.	.	.	.	.
8F#\	.	.	8a/ 8d/	.	16ccc#\	.	.	8d\	.	8dd\	.	8aa\	.
.	.	.	.	.	16ddd\JJ	.	.	.	.	.	.	.	.
!	!	!	!	!	!	!	!	!LO:LB:g=original	!	!	!	!	!
=142	=142	=142	=142	=142	=142	=142	=142	=142	=142	=142	=142	=142	=142
8G\L	.	2ryy	8b/L 8d/	.	8bb\L	.	2ryy	4e\	.	8dd\L	.	8bb\L	.
8G\	.	.	8b/J 8d/	.	8gg\	.	.	.	.	8ee\	.	8gg\	.
8A\	.	.	8dd\L	.	8ff#\	.	.	8f#\L	.	8dd\	.	8ff#\	.
8A\J	.	.	8cc#\J	.	8ee\J	.	.	8e\J	.	8cc#\J	.	8ee\J	.
!	!	!	!	!	!	!	!	!	!	!LO:LB:g=original	!	!	!
=143	=143	=143	=143	=143	=143	=143	=143	=143	=143	=143	=143	=143	=143
8d\L	.	2ryy	16f#/LL	.	8dd\	.	2ryy	8d\L	.	8dd\L	.	8dd\L	.
.	.	.	16a/	.	.	.	.	.	.	.	.	.	.
16A\L	.	.	16f#/	.	4ddd\	.	.	16d\L	.	8ff#\	.	8aa\	.
16F#\JJ	.	.	16a/JJ	.	.	.	.	16d\JJ	.	.	.	.	.
8D/L	.	.	16f#/LL	.	.	.	.	8d\L	.	8dd\	.	8ff#\	.
.	.	.	16a/	.	.	.	.	.	.	.	.	.	.
8AA/J	.	.	16e/	.	8aa\	.	.	8e\J	.	8ee\J	.	8gg\J	.
.	.	.	16a/JJ	.	.	.	.	.	.	.	.	.	.
!	!	!	!	!	!LO:LB:g=original	!	!	!	!	!	!	!	!
=144	=144	=144	=144	=144	=144	=144	=144	=144	=144	=144	=144	=144	=144
8D/L	.	2ryy	16e/LL	.	8ff#\L 8a\	.	2ryy	8f#\L	.	8dd\L	.	8ff#\L	.
.	.	.	16a/	.	.	.	.	.	.	.	.	.	.
8AA/	.	.	16e/	.	8gg\ 8a\	.	.	8e\	.	8ee\	.	8gg\	.
.	.	.	16a/JJ	.	.	.	.	.	.	.	.	.	.
8D/	.	.	16f#/LL	.	8ff#\ 8a\	.	.	8f#\	.	8dd\	.	8ff#\	.
.	.	.	16a/	.	.	.	.	.	.	.	.	.	.
8AA/J	.	.	16e/	.	8gg\J 8a\	.	.	8e\J	.	8ee\J	.	8gg\J	.
.	.	.	16a/JJ	.	.	.	.	.	.	.	.	.	.
!	!	!	!	!	!	!	!	!	!	!	!	!LO:LB:g=original	!
=145	=145	=145	=145	=145	=145	=145	=145	=145	=145	=145	=145	=145	=145
!	!	!	!LO:TX:t=P:problem=tt. 145-146 zapisane repetycją	!	!	!	!	!	!	!LO:TX:t=P:problem=tt. 145-146 zapisane repetycją	!	!	!
16D\LL	.	2ryy	16f#/LLyy	.	8ff#\ 8a\	.	2ryy	8f#\L	.	8dd\Lyy	.	8ff#\L	.
16F#\	.	.	16a/yy	.	.	.	.	.	.	.	.	.	.
16A\	.	.	16f#/yy	.	4ddd\	.	.	16d\L	.	8ff#\yy	.	8aa\	.
16F#\JJ	.	.	16a/JJyy	.	.	.	.	16d\JJ	.	.	.	.	.
8D/L	.	.	16f#/LLyy	.	.	.	.	8d\L	.	8dd\yy	.	8ff#\	.
.	.	.	16a/yy	.	.	.	.	.	.	.	.	.	.
8AA/J	.	.	16e/yy	.	8aa\ 8a\	.	.	8e\J	.	8ee\Jyy	.	8gg\J	.
.	.	.	16a/JJyy	.	.	.	.	.	.	.	.	.	.
=146	=146	=146	=146	=146	=146	=146	=146	=146	=146	=146	=146	=146	=146
*	*	*	*	*	*^	*	*	*	*	*	*	*	*
*	*	*	*	*	*Xtremolo	*tremolo	*	*	*	*	*	*	*	*
8D/L	.	2ryy	16e/LLyy	.	8ff#/L	8a\L	.	2ryy	8f#\L	.	8dd\Lyy	.	8ff#\L	.
.	.	.	16a/yy	.	.	.	.	.	.	.	.	.	.	.
8AA/	.	.	16e/yy	.	8gg/	8a\	.	.	8e\	.	8ee\yy	.	8gg\	.
.	.	.	16a/JJyy	.	.	.	.	.	.	.	.	.	.	.
8D/	.	.	16f#/LLyy	.	8ff#/	8a\	.	.	8f#\	.	8dd\yy	.	8ff#\	.
.	.	.	16a/yy	.	.	.	.	.	.	.	.	.	.	.
8AA/J	.	.	16e/yy	.	8gg/J	8a\J	.	.	8e\J	.	8ee\Jyy	.	8gg\J	.
.	.	.	16a/JJyy	.	.	.	.	.	.	.	.	.	.	.
*	*	*	*	*	*	*Xtremolo	*	*	*	*	*	*	*	*
*	*	*	*	*	*v	*v	*	*	*	*	*	*	*	*
!	!	!	!LO:LB:g=original	!	!	!	!	!	!	!	!	!	!
=147	=147	=147	=147	=147	=147	=147	=147	=147	=147	=147	=147	=147	=147
*tremolo	*	*	*	*	*tremolo	*	*	*	*	*	*	*	*
8D\L	.	2ryy	16f#/LL	.	16ff#\LL 16a\	.	2ryy	4f#\	.	4dd\	.	4ff#\	.
.	.	.	16a/	.	16ff#\ 16a\	.	.	.	.	.	.	.	.
8D\J	.	.	16f#/	.	16ff#\ 16a\	.	.	.	.	.	.	.	.
.	.	.	16a/JJ	.	16ff#\JJ 16a\	.	.	.	.	.	.	.	.
*	*	*	*tremolo	*	*	*	*	*	*	*	*	*	*
8A\L	.	.	16cc#\LL	.	16aa\LL	.	.	4r	.	4cc#\	.	4ee\	.
.	.	.	16cc#\	.	16aa\	.	.	.	.	.	.	.	.
8A\J	.	.	16cc#\	.	16aa\	.	.	.	.	.	.	.	.
.	.	.	16cc#\JJ	.	16aa\JJ	.	.	.	.	.	.	.	.
=148	=148	=148	=148	=148	=148	=148	=148	=148	=148	=148	=148	=148	=148
8B\L	.	2ryy	16dd\LL	.	16gg#X\LL	.	2ryy	4r	.	4dd\	.	4ee\	.
.	.	.	16dd\	.	16gg#\	.	.	.	.	.	.	.	.
8B\J	.	.	16dd\	.	16gg#\	.	.	.	.	.	.	.	.
.	.	.	16dd\JJ	.	16gg#\JJ	.	.	.	.	.	.	.	.
8c#\L	.	.	16ee\LL	.	16ggn\LL	.	.	4e\	.	4ee\	.	4gg\	.
.	.	.	16ee\	.	16gg\	.	.	.	.	.	.	.	.
8c#\J	.	.	16ee\	.	16gg\	.	.	.	.	.	.	.	.
.	.	.	16ee\JJ	.	16gg\JJ	.	.	.	.	.	.	.	.
!LO:LB:g=original	!	!	!	!	!	!	!	!	!	!	!	!	!
=149	=149	=149	=149	=149	=149	=149	=149	=149	=149	=149	=149	=149	=149
8d\L	.	2ryy	16a/LL	.	16ff#\LL	.	2ryy	4f#\	.	4dd\	.	4ff#\	.
.	.	.	16a/	.	16ff#\	.	.	.	.	.	.	.	.
8d\J	.	.	16a/	.	16ff#\	.	.	.	.	.	.	.	.
.	.	.	16a/JJ	.	16ff#\JJ	.	.	.	.	.	.	.	.
8F#\L	.	.	16a#X/LL	.	16ff#\LL	.	.	4r	.	4cc#\	.	4ff#\	.
.	.	.	16a#/	.	16ff#\	.	.	.	.	.	.	.	.
8F#\J	.	.	16a#/	.	16ff#\	.	.	.	.	.	.	.	.
.	.	.	16a#/JJ	.	16ff#\JJ	.	.	.	.	.	.	.	.
=150	=150	=150	=150	=150	=150	=150	=150	=150	=150	=150	=150	=150	=150
8G#X\L	.	2ryy	16b\LL	.	16ee#X\LL	.	2ryy	4r	.	4b\	.	4ee#X\	.
.	.	.	16b\	.	16ee#\	.	.	.	.	.	.	.	.
8G#\J	.	.	16b\	.	16ee#\	.	.	.	.	.	.	.	.
.	.	.	16b\JJ	.	16ee#\JJ	.	.	.	.	.	.	.	.
8A#X\L	.	.	16cc#\LL	.	16een\LL	.	.	4f#\	.	4cc#\	.	4ff#\	.
.	.	.	16cc#\	.	16ee\	.	.	.	.	.	.	.	.
8A#\J	.	.	16cc#\	.	16ee\	.	.	.	.	.	.	.	.
.	.	.	16cc#\JJ	.	16ee\JJ	.	.	.	.	.	.	.	.
*Xtremolo	*	*	*	*	*Xtremolo	*	*	*	*	*	*	*	*
!	!	!	!	!	!	!	!	!LO:LB:g=original	!	!	!	!	!
=151	=151	=151	=151	=151	=151	=151	=151	=151	=151	=151	=151	=151	=151
8B\L	.	2ryy	16f#/LL	.	8dd\	.	2ryy	8f#\L	.	8dd\	.	8ff#\	.
.	.	.	16f#/	.	.	.	.	.	.	.	.	.	.
16F#\L	.	.	16f#/	.	4bb\	.	.	16f#\L	.	4dd\	.	4ff#\	.
16D\JJ	.	.	16f#/	.	.	.	.	16f#\JJ	.	.	.	.	.
8BB\L	.	.	16f#/	.	.	.	.	8f#\L	.	.	.	.	.
.	.	.	16f#/	.	.	.	.	.	.	.	.	.	.
8F#\J	.	.	16f#/	.	8ff#\	.	.	8f#\J	.	8dd\	.	8aa#X\	.
.	.	.	16f#/JJ	.	.	.	.	.	.	.	.	.	.
=152	=152	=152	=152	=152	=152	=152	=152	=152	=152	=152	=152	=152	=152
*	*	*	*	*	*	*	*	*tremolo	*	*	*	*	*
8B\L	.	2ryy	16f#/LL	.	8dd\L	.	2ryy	8f#\L	.	8dd\L	.	8bb\L	.
.	.	.	16f#/	.	.	.	.	.	.	.	.	.	.
8F#\	.	.	16f#/	.	8ee\	.	.	8f#\	.	8ee\	.	8aa#X\	.
.	.	.	16f#/	.	.	.	.	.	.	.	.	.	.
8B\	.	.	16f#/	.	8dd\	.	.	8f#\	.	8dd\	.	8bb\	.
.	.	.	16f#/	.	.	.	.	.	.	.	.	.	.
8F#\J	.	.	16f#/	.	8ee\J	.	.	8f#\J	.	8ee\J	.	8aa#\J	.
.	.	.	16f#/JJ	.	.	.	.	.	.	.	.	.	.
*	*	*	*	*	*	*	*	*Xtremolo	*	*	*	*	*
=153	=153	=153	=153	=153	=153	=153	=153	=153	=153	=153	=153	=153	=153
!	!	!	!LO:TX:t=P:problem=tt.153-154 zapisane repetycją	!	!	!	!	!LO:TX:t=P:problem=tt. 153-154 zapisane repetycją	!	!	!	!	!
8B\L	.	2ryy	16f#/LLyy	.	8dd\	.	2ryy	8f#\Lyy	.	8dd\L	.	8bb\L	.
.	.	.	16f#/yy	.	.	.	.	.	.	.	.	.	.
16F#\L	.	.	16f#/yy	.	4bb\	.	.	16f#\Lyy	.	8dd\	.	8ff#\	.
16D\JJ	.	.	16f#/yy	.	.	.	.	16f#\JJyy	.	.	.	.	.
!LO:TX:t=P:problem=mixed beam	!	!	!	!	!	!	!	!	!	!	!	!	!
8BB/L	.	.	16f#/yy	.	.	.	.	8f#\Lyy	.	8dd\	.	8bb\	.
.	.	.	16f#/yy	.	.	.	.	.	.	.	.	.	.
8F#\J	.	.	16f#/yy	.	8ff#\	.	.	8f#\Jyy	.	8ee\J	.	8aa#X\J	.
.	.	.	16f#/JJyy	.	.	.	.	.	.	.	.	.	.
!	!	!	!	!	!LO:LB:g=original	!	!	!	!	!	!	!	!
=154	=154	=154	=154	=154	=154	=154	=154	=154	=154	=154	=154	=154	=154
*	*	*	*	*	*	*	*	*tremolo	*	*	*	*	*
8B\L	.	2ryy	16f#/LLyy	.	8dd\L	.	2ryy	8f#\Lyy	.	8dd\L	.	8bb\L	.
.	.	.	16f#/yy	.	.	.	.	.	.	.	.	.	.
!	!	!	!	!	!	!	!	!	!	!	!	!LO:SIC:v:s=8aa#\	!
8F#\	.	.	16f#/yy	.	8ee\	.	.	8f#\yy	.	8ee\	.	8aa\	.
.	.	.	16f#/yy	.	.	.	.	.	.	.	.	.	.
8B\	.	.	16f#/yy	.	8dd\	.	.	8f#\yy	.	8dd\	.	8bb\	.
.	.	.	16f#/yy	.	.	.	.	.	.	.	.	.	.
!	!	!	!	!	!	!	!	!	!	!	!	!LO:SIC:v:s=8aa#\	!
8F#\J	.	.	16f#/yy	.	8ee\J	.	.	8f#\Jyy	.	8ee\J	.	8aa\J	.
.	.	.	16f#/JJyy	.	.	.	.	.	.	.	.	.	.
*	*	*	*	*	*	*	*	*Xtremolo	*	*	*	*	*
!	!	!	!	!	!	!	!	!	!	!LO:LB:g=original	!	!LO:LB:g=original	!
=155	=155	=155	=155	=155	=155	=155	=155	=155	=155	=155	=155	=155	=155
8B\L	.	2ryy	16f#/LL	.	16dd\LL	.	2ryy	4f#\	.	8dd\L	.	8bb\L	.
.	.	.	16f#/	.	16dd\	.	.	.	.	.	.	.	.
8A#X\	.	.	16f#/	.	16cc#\	.	.	.	.	8ee\	.	8ff#\	.
.	.	.	16f#/	.	16cc#\JJ	.	.	.	.	.	.	.	.
8B\	.	.	16f#/	.	16dd\LL	.	.	4r	.	8dd\	.	8ff#\	.
.	.	.	16f#/	.	16dd\	.	.	.	.	.	.	.	.
8An\J	.	.	16f#/	.	16dd#X\	.	.	.	.	8dd#X\J	.	8ff#\J	.
.	.	.	16f#/JJ	.	16dd#\JJ	.	.	.	.	.	.	.	.
=156	=156	=156	=156	=156	=156	=156	=156	=156	=156	=156	=156	=156	=156
8G\L	.	2ryy	16b\LL	.	16ee\LL	.	2ryy	4e\	.	8b\L	.	8ee\L	.
.	.	.	16b\	.	16ee\	.	.	.	.	.	.	.	.
8D#X\	.	.	16b\	.	16ff#\	.	.	.	.	8b\	.	8ff#\	.
.	.	.	16b\	.	16ff#\JJ	.	.	.	.	.	.	.	.
8E\	.	.	16b\	.	16gg\LL	.	.	4r	.	8b\	.	8gg\	.
.	.	.	16b\	.	16gg\	.	.	.	.	.	.	.	.
8G\J	.	.	16b\	.	16bb\	.	.	.	.	8dd\J	.	8bb\J	.
.	.	.	16b\JJ	.	16bb\JJ	.	.	.	.	.	.	.	.
=157	=157	=157	=157	=157	=157	=157	=157	=157	=157	=157	=157	=157	=157
*tremolo	*	*	*	*	*tremolo	*	*	*	*	*	*	*	*
8F#\L	.	2ryy	16dd\LL	.	16aa\LL	.	2ryy	4a\	.	4dd\	.	4aa\	.
.	.	.	16dd\	.	16aa\	.	.	.	.	.	.	.	.
8F#\J	.	.	16dd\	.	16aa\	.	.	.	.	.	.	.	.
.	.	.	16dd\	.	16aa\JJ	.	.	.	.	.	.	.	.
!LO:LB:g=original	!	!	!	!	!	!	!	!	!	!	!	!	!
!LO:TX:t=P:problem=dźwięk nieczytelny - uszkodzony papier	!	!	!	!	!	!	!	!	!	!	!	!	!
8F#\Lyy	.	.	16dd\	.	16ff#\LL	.	.	4f#\	.	4dd\	.	4ff#\	.
.	.	.	16dd\	.	16ff#\	.	.	.	.	.	.	.	.
8F#\Jyy	.	.	16dd\	.	16ff#\	.	.	.	.	.	.	.	.
.	.	.	16dd\JJ	.	16ff#\JJ	.	.	.	.	.	.	.	.
=158	=158	=158	=158	=158	=158	=158	=158	=158	=158	=158	=158	=158	=158
8G\L	.	2ryy	16b\LL	.	16gg\LL	.	2ryy	4g\	.	4ee\	.	4gg\	.
.	.	.	16b\	.	16gg\	.	.	.	.	.	.	.	.
8G\J	.	.	16b\	.	16gg\	.	.	.	.	.	.	.	.
.	.	.	16b\JJ	.	16gg\JJ	.	.	.	.	.	.	.	.
8A\L	.	.	16cc#\LL	.	16ee\LL	.	.	4e\	.	4cc#\	.	4ee\	.
.	.	.	16cc#\	.	16ee\	.	.	.	.	.	.	.	.
8A\J	.	.	16cc#\	.	16ee\	.	.	.	.	.	.	.	.
.	.	.	16cc#\JJ	.	16ee\JJ	.	.	.	.	.	.	.	.
*Xtremolo	*	*	*Xtremolo	*	*Xtremolo	*	*	*	*	*	*	*	*
=159	=159	=159	=159	=159	=159	=159	=159	=159	=159	=159	=159	=159	=159
!	!	!	!	!LO:DY:a:rj:t=p.	!	!	!	!	!	!	!	!	!
4D\	.	2ryy	8a/L	p	4dd\	.	2ryy	4d\	.	4dd\	.	4dd\	.
.	.	.	8d/	.	.	.	.	.	.	.	.	.	.
4r	.	.	8f#/	.	8r	.	.	4r	.	4r	.	8r	.
!	!	!	!	!	!	!LO:DY:a:rj:t=p.	!	!	!	!	!	!	!LO:DY:a:rj
.	.	.	8d/J	.	8a/	p	.	.	.	.	.	8bb\	p
!	!	!	!LO:LB:g=original	!	!	!	!	!	!	!	!	!	!
=160	=160	=160	=160	=160	=160	=160	=160	=160	=160	=160	=160	=160	=160
*	*	*	*	*	*tremolo	*	*	*	*	*	*	*	*
!	!	!	!	!	!	!	!	!LO:TX:a:t=4	!	!LO:TX:a:t=12	!	!	!
*	*	*	*	*	*	*	*	*	*	*	*	*tremolo	*
!	!LO:DY:a	!	!	!	!	!	!	!	!	!	!	!	!
(2D\	pp	2ryy	8e/L	.	8a/L	.	2ryy	0r	.	0r	.	8aa\L	.
.	.	.	8c#/	.	8a/	.	.	.	.	.	.	8aa\	.
.	.	.	8e/	.	8a/	.	.	.	.	.	.	8aa\	.
.	.	.	8c#/J	.	8a/J	.	.	.	.	.	.	8aa\J	.
*	*	*	*	*	*Xtremolo	*	*	*	*	*	*	*Xtremolo	*
=161	=161	=161	=161	=161	=161	=161	=161	=161	=161	=161	=161	=161	=161
2D\	.	2ryy	8d/L	.	16a/LL	.	2ryy	.	.	.	.	16aa\LL	.
.	.	.	.	.	16b/	.	.	.	.	.	.	16bb\	.
.	.	.	8A/	.	16a/	.	.	.	.	.	.	16aa\	.
.	.	.	.	.	16g/JJ	.	.	.	.	.	.	16gg\JJ	.
.	.	.	8d/	.	8.f#/L	.	.	.	.	.	.	8.ff#\L	.
.	.	.	8A/J	.	.	.	.	.	.	.	.	.	.
.	.	.	.	.	16g/Jk	.	.	.	.	.	.	16gg\Jk	.
!	!	!	!	!	!LO:LB:g=original	!	!	!	!	!	!	!	!
=162	=162	=162	=162	=162	=162	=162	=162	=162	=162	=162	=162	=162	=162
*	*	*	*	*	*tremolo	*	*	*	*	*	*	*tremolo	*
2D\	.	2ryy	8c#/L	.	8e/L	.	2ryy	.	.	.	.	8ee\L	.
.	.	.	8A/	.	8e/	.	.	.	.	.	.	8ee\	.
.	.	.	8c#/	.	8e/	.	.	.	.	.	.	8ee\	.
.	.	.	8A/J	.	8e/J	.	.	.	.	.	.	8ee\J	.
*	*	*	*	*	*Xtremolo	*	*	*	*	*	*	*Xtremolo	*
=163	=163	=163	=163	=163	=163	=163	=163	=163	=163	=163	=163	=163	=163
2D\	.	2ryy	8d/L	.	8.f#/L	.	2ryy	.	.	.	.	8.ff#\L	.
.	.	.	8A/	.	.	.	.	.	.	.	.	.	.
.	.	.	.	.	16e/Jk	.	.	.	.	.	.	16ee\Jk	.
.	.	.	8d/	.	16d/LL	.	.	.	.	.	.	16dd\LL	.
.	.	.	.	.	16e/	.	.	.	.	.	.	16ee\	.
.	.	.	8A/J	.	16f#/	.	.	.	.	.	.	16ff#\	.
.	.	.	.	.	16g/JJ	.	.	.	.	.	.	16gg\JJ	.
=164	=164	=164	=164	=164	=164	=164	=164	=164	=164	=164	=164	=164	=164
!	!	!	!LO:TX:t=P:problem=tt. 164-167 zapisane repetycją	!	!	!	!	!	!	!	!	!	!
*	*	*	*	*	*tremolo	*	*	*	*	*	*	*tremolo	*
!	!	!	!	!	!	!	!	!	!LO:DY:a	!	!	!	!
2D\	.	2ryy	8e/Lyy	.	8a/L	.	2ryy	2d\	p	0r	.	8aa\L	.
.	.	.	8c#/yy	.	8a/	.	.	.	.	.	.	8aa\	.
.	.	.	8e/yy	.	8a/	.	.	.	.	.	.	8aa\	.
.	.	.	8c#/Jyy	.	8a/J	.	.	.	.	.	.	8aa\J	.
*	*	*	*	*	*Xtremolo	*	*	*	*	*	*	*Xtremolo	*
!	!	!	!	!	!	!	!	!	!	!	!	!LO:LB:g=original	!
=165	=165	=165	=165	=165	=165	=165	=165	=165	=165	=165	=165	=165	=165
2D\	.	2ryy	8d/Lyy	.	16a/LL	.	2ryy	2d\	.	.	.	16aa\LL	.
.	.	.	.	.	16b/	.	.	.	.	.	.	16bb\	.
.	.	.	8A/yy	.	16a/	.	.	.	.	.	.	16aa\	.
.	.	.	.	.	16g/JJ	.	.	.	.	.	.	16gg\JJ	.
.	.	.	8d/yy	.	8.f#/L	.	.	.	.	.	.	8.ff#\L	.
.	.	.	8A/Jyy	.	.	.	.	.	.	.	.	.	.
.	.	.	.	.	16g/Jk	.	.	.	.	.	.	16gg\Jk	.
=166	=166	=166	=166	=166	=166	=166	=166	=166	=166	=166	=166	=166	=166
*	*	*	*	*	*tremolo	*	*	*	*	*	*	*tremolo	*
!	!	!	!	!	!	!	!	!LO:TX:t=P:problem=tt.166-167 zapisane repetycją	!	!	!	!	!
2D\	.	2ryy	8c#/Lyy	.	8e/L	.	2ryy	2d\yy	.	.	.	8ee\L	.
.	.	.	8A/yy	.	8e/	.	.	.	.	.	.	8ee\	.
.	.	.	8c#/yy	.	8e/	.	.	.	.	.	.	8ee\	.
.	.	.	8A/Jyy	.	8e/J	.	.	.	.	.	.	8ee\J	.
*	*	*	*	*	*Xtremolo	*	*	*	*	*	*	*Xtremolo	*
=167	=167	=167	=167	=167	=167	=167	=167	=167	=167	=167	=167	=167	=167
2D\	.	2ryy	8d/Lyy	.	16f#/LL	.	2ryy	2d\yy	.	.	.	16ff#\LL	.
.	.	.	.	.	16g/	.	.	.	.	.	.	16gg\	.
.	.	.	8A/yy	.	16f#/	.	.	.	.	.	.	16ff#\	.
.	.	.	.	.	16e/JJ	.	.	.	.	.	.	16ee\JJ	.
.	.	.	8d/yy	.	8d/L	.	.	.	.	.	.	8dd\L	.
.	.	.	8A/Jyy	.	8g/J	.	.	.	.	.	.	8gg\J	.
=168	=168	=168	=168	=168	=168	=168	=168	=168	=168	=168	=168	=168	=168
2D\	.	2ryy	8c#/L	.	8e'/L	.	2ryy	2e\	.	0r	.	8ee\L	.
.	.	.	8A/	.	8e'/	.	.	.	.	.	.	8ee\	.
.	.	.	8c#/	.	(8c#/	.	.	.	.	.	.	(8cc#\	.
.	.	.	8A/J	.	8a/J)	.	.	.	.	.	.	8aa\J)	.
=169	=169	=169	=169	=169	=169	=169	=169	=169	=169	=169	=169	=169	=169
2D\	.	2ryy	8d/L	.	8f#'/L	.	2ryy	2f#\	.	.	.	8ff#\L	.
.	.	.	8A/	.	8f#'/	.	.	.	.	.	.	8ff#\	.
.	.	.	8d/	.	(8d/	.	.	.	.	.	.	8cc#\	.
.	.	.	8A/J	.	8g/J)	.	.	.	.	.	.	8gg\J	.
!LO:LB:g=original	!	!	!	!	!	!	!	!	!	!	!	!	!
=170	=170	=170	=170	=170	=170	=170	=170	=170	=170	=170	=170	=170	=170
!	!	!	!LO:TX:t=P:problem=tt.170-171 zapisane repetycją	!	!	!	!	!	!	!	!	!	!
2D\	.	2ryy	8c#/Lyy	.	8e'/L	.	2ryy	2e\	.	.	.	8ee\L	.
.	.	.	8A/yy	.	8e'/	.	.	.	.	.	.	8ee\	.
.	.	.	8c#/yy	.	(8c#/	.	.	.	.	.	.	8cc#\	.
.	.	.	8A/Jyy	.	8a/J)	.	.	.	.	.	.	8aa\J	.
!	!	!	!	!	!LO:LB:g=original	!	!	!	!	!	!	!	!
=171	=171	=171	=171	=171	=171	=171	=171	=171	=171	=171	=171	=171	=171
2D\)	.	2ryy	8d/Lyy	.	8f#/L	.	2ryy	4f#\	.	.	.	8ff#\L	.
.	.	.	8A/yy	.	8f#/	.	.	.	.	.	.	8ff#\	.
.	.	.	8d/yy	.	(8d/	.	.	8d\	.	.	.	8dd\J	.
.	.	.	8A/Jyy	.	8b/J)	.	.	8r	.	.	.	8r	.
!	!	!	!	!	!	!	!	!LO:LB:g=original	!	!	!	!	!
=172	=172	=172	=172	=172	=172	=172	=172	=172	=172	=172	=172	=172	=172
!	!	!	!	!	!	!	!	!	!	!	!LO:DY:a:rj	!	!
2E\	.	2ryy	2d/	.	8g#X/L	.	2ryy	2e\	.	2dd\	p	2gg#X\	.
.	.	.	.	.	8g#/	.	.	.	.	.	.	.	.
.	.	.	.	.	(8e/	.	.	.	.	.	.	.	.
.	.	.	.	.	8g#/J)	.	.	.	.	.	.	.	.
=173	=173	=173	=173	=173	=173	=173	=173	=173	=173	=173	=173	=173	=173
2A\	.	2ryy	2c#/	.	(8a\L	.	2ryy	2e\	.	2cc#\	.	2aa\	.
.	.	.	.	.	8cc#\)	.	.	.	.	.	.	.	.
.	.	.	.	.	(8ee\	.	.	.	.	.	.	.	.
.	.	.	.	.	8aa\J)	.	.	.	.	.	.	.	.
=174	=174	=174	=174	=174	=174	=174	=174	=174	=174	=174	=174	=174	=174
2E\	.	2ryy	2d/	.	8gg#X\L	.	2ryy	2e\	.	2dd\	.	2dd\	.
.	.	.	.	.	8gg#\	.	.	.	.	.	.	.	.
.	.	.	.	.	(8ee\	.	.	.	.	.	.	.	.
.	.	.	.	.	8gg#\J)	.	.	.	.	.	.	.	.
=175	=175	=175	=175	=175	=175	=175	=175	=175	=175	=175	=175	=175	=175
4A\	.	2ryy	4c#/	.	8aa\L	.	2ryy	4e\	.	4cc#\	.	2cc#\	.
.	.	.	.	.	8aa\	.	.	.	.	.	.	.	.
4r	.	.	4r	.	(8ee\	.	.	4r	.	4r	.	.	.
.	.	.	.	.	8ccc#\J)	.	.	.	.	.	.	.	.
!	!	!	!LO:LB:g=original	!	!	!	!	!	!	!	!	!	!
=176	=176	=176	=176	=176	=176	=176	=176	=176	=176	=176	=176	=176	=176
!	!	!	!	!	!	!	!	!LO:TX:a:t=1	!	!LO:TX:a:t=1	!	!LO:TX:a:t=1	!
2r	.	2ryy	8r	.	(8bb\L	.	2ryy	2r	.	2r	.	2r	.
.	.	.	8c#/L	.	8aa\	.	.	.	.	.	.	.	.
.	.	.	8d/	.	8gg#X\	.	.	.	.	.	.	.	.
.	.	.	8e/J	.	8ggn\J)	.	.	.	.	.	.	.	.
!	!	!	!	!	!	!	!	!	!	!LO:LB:g=original	!	!LO:PB:g=original	!
=177	=177	=177	=177	=177	=177	=177	=177	=177	=177	=177	=177	=177	=177
!	!LO:DY:t=for	!	!	!LO:DY:a:rj:t=for	!	!LO:DY:a:rj:t=for	!	!	!LO:DY:a:rj	!	!	!	!LO:DY:a:rj:t=f.
8d\L	f	2ryy	16f#/LL	f	16ff#\LL	f	2ryy	8d\L	f	8dd\L	.	8ff#\L	f
.	.	.	16a/	.	16dd\	.	.	.	.	.	.	.	.
16A\L	.	.	16f#/	.	16ff#\	.	.	16d\L	.	8ff#\	.	8aa\	.
16F#\JJ	.	.	16a/JJ	.	16aa\JJ	.	.	16d\JJ	.	.	.	.	.
8D\L	.	.	16f#/LL	.	8ddd\L	.	.	8d\L	.	8dd\	.	8ff#\	.
.	.	.	16a/	.	.	.	.	.	.	.	.	.	.
8AA\J	.	.	16g/	.	8aa\J	.	.	8e\J	.	8ee\J	.	8gg\J	.
.	.	.	16a/JJ	.	.	.	.	.	.	.	.	.	.
=178	=178	=178	=178	=178	=178	=178	=178	=178	=178	=178	=178	=178	=178
*	*	*	*	*	*^	*	*	*	*	*	*	*	*
*	*	*	*	*	*Xtremolo	*tremolo	*	*	*	*	*	*	*	*
8D/L	.	2ryy	16f#/LL	.	8ff#/L	8a\L	.	2ryy	8f#\L	.	8dd\L	.	8ff#\L	.
.	.	.	16a/	.	.	.	.	.	.	.	.	.	.	.
8AA/	.	.	16g/	.	8gg/	8a\	.	.	8e\	.	8ee\	.	8gg\	.
.	.	.	16a/JJ	.	.	.	.	.	.	.	.	.	.	.
8D/	.	.	16f#/LL	.	8ff#/	8a\	.	.	8f#\	.	8dd\	.	8ff#\	.
.	.	.	16a/	.	.	.	.	.	.	.	.	.	.	.
8AA/J	.	.	16g/	.	8gg/J	8a\J	.	.	8e\J	.	8ee\J	.	8gg\J	.
.	.	.	16a/JJ	.	.	.	.	.	.	.	.	.	.	.
*	*	*	*	*	*	*Xtremolo	*	*	*	*	*	*	*	*
*	*	*	*	*	*v	*v	*	*	*	*	*	*	*	*
=179	=179	=179	=179	=179	=179	=179	=179	=179	=179	=179	=179	=179	=179
!	!	!	!	!	!	!	!	!	!	!LO:TX:t=P:problem=tt. 179-180 zapisane repetycją	!	!	!
8D\L	.	2ryy	16f#/LL	.	16ff#\LL	.	2ryy	8f#\L	.	8dd\Lyy	.	8ff#\L	.
.	.	.	16a/	.	16dd\	.	.	.	.	.	.	.	.
16F#\L	.	.	16f#/	.	16ff#\	.	.	8a\	.	8ff#\yy	.	8aa\	.
16A\JJ	.	.	16a/JJ	.	16aa\JJ	.	.	.	.	.	.	.	.
8d\L	.	.	16f#/LL	.	8ddd\L	.	.	8f#\	.	8dd\yy	.	8ff#\	.
.	.	.	16a/	.	.	.	.	.	.	.	.	.	.
8A\J	.	.	16g/	.	8aa\J	.	.	8e\J	.	8ee\Jyy	.	8gg\J	.
.	.	.	16a/JJ	.	.	.	.	.	.	.	.	.	.
!	!	!	!	!	!LO:LB:g=original	!	!	!	!	!	!	!	!
=180	=180	=180	=180	=180	=180	=180	=180	=180	=180	=180	=180	=180	=180
8D/L	.	2ryy	16f#/LL	.	8ff#\L 8a\	.	2ryy	8f#\L	.	8dd\Lyy	.	8ff#\L	.
.	.	.	16a/	.	.	.	.	.	.	.	.	.	.
8AA/	.	.	16f#/	.	8gg\ 8a\	.	.	8e\	.	8ee\yy	.	8gg\	.
.	.	.	16a/JJ	.	.	.	.	.	.	.	.	.	.
8D/	.	.	16f#/LL	.	8ff#\ 8a\	.	.	8f#\	.	8dd\yy	.	8ff#\	.
.	.	.	16a/	.	.	.	.	.	.	.	.	.	.
8AA/J	.	.	16f#/	.	8gg\J 8a\	.	.	8e\J	.	8ee\Jyy	.	8gg\J	.
.	.	.	16a/JJ	.	.	.	.	.	.	.	.	.	.
!LO:LB:g=original	!	!	!	!	!	!	!	!	!	!	!	!	!
=181	=181	=181	=181	=181	=181	=181	=181	=181	=181	=181	=181	=181	=181
8D\L	.	2ryy	16f#/LL	.	16ff#\LL	.	2ryy	8f#\L	.	8dd\L	.	8ff#\L	.
.	.	.	16f#/	.	16ff#\	.	.	.	.	.	.	.	.
8A\	.	.	16a/	.	16aa\	.	.	8e\	.	8cc#\	.	8aa\	.
.	.	.	16a/JJ	.	16aa\JJ	.	.	.	.	.	.	.	.
8B\	.	.	16g#X/LL	.	16gg#X\LL	.	.	8e\	.	8dd\	.	8gg#X\	.
.	.	.	16g#/	.	16gg#\	.	.	.	.	.	.	.	.
8c#\J	.	.	16gn/	.	16ggn\	.	.	8e\J	.	8ee\J	.	8ggn\J	.
.	.	.	16g/JJ	.	16gg\JJ	.	.	.	.	.	.	.	.
!	!	!	!LO:LB:g=original	!	!	!	!	!	!	!	!	!	!
=182	=182	=182	=182	=182	=182	=182	=182	=182	=182	=182	=182	=182	=182
!LO:TX:t=P:problem=mixed beam	!	!	!	!	!	!	!	!	!	!	!	!	!
*	*	*	*	*	*tremolo	*	*	*	*	*tremolo	*	*	*
8d\L	.	2ryy	16f#/LL	.	16ff#\LL	.	2ryy	8f#\L	.	8dd\L	.	8ff#\L	.
.	.	.	16f#/	.	16ff#\	.	.	.	.	.	.	.	.
8D/	.	.	16f#/	.	16ff#\	.	.	8d\	.	8dd\	.	8dd\	.
.	.	.	16f#/JJ	.	16ff#\JJ	.	.	.	.	.	.	.	.
*	*	*	*	*	*Xtremolo	*	*	*	*	*	*	*	*
8E/	.	.	16g/LL	.	16gg\LL	.	.	8d\	.	8dd\	.	8dd\	.
.	.	.	16g/	.	16gg\	.	.	.	.	.	.	.	.
8F#/J	.	.	16a/	.	16aa\	.	.	8d\J	.	8dd\J	.	8dd\J	.
.	.	.	16a/JJ	.	16aa\JJ	.	.	.	.	.	.	.	.
!	!	!	!	!	!	!	!	!LO:PB:g=original	!	!	!	!	!
=183	=183	=183	=183	=183	=183	=183	=183	=183	=183	=183	=183	=183	=183
*	*	*	*	*	*	*	*	*tremolo	*	*	*	*	*
8G\L	.	2ryy	16b\LL	.	16bb\LL	.	2ryy	8d\L	.	8dd\L	.	8dd\L	.
.	.	.	16b\	.	16bb\	.	.	.	.	.	.	.	.
8A\	.	.	16cc#\	.	16ccc#\	.	.	8d\	.	8dd\	.	8dd\	.
.	.	.	16cc#\JJ	.	16ccc#\JJ	.	.	.	.	.	.	.	.
*	*	*	*tremolo	*	*	*	*	*	*	*	*	*	*
8B\	.	.	16dd\LL	.	16ddd\LL	.	.	8d\	.	8dd\	.	8dd\	.
.	.	.	16dd\	.	16ddd\	.	.	.	.	.	.	.	.
8B\J	.	.	16dd\	.	16gg#X\	.	.	8d\J	.	8dd\J	.	8gg#X\J	.
.	.	.	16dd\JJ	.	16gg#\JJ	.	.	.	.	.	.	.	.
*	*	*	*	*	*	*	*	*Xtremolo	*	*Xtremolo	*	*	*
=184	=184	=184	=184	=184	=184	=184	=184	=184	=184	=184	=184	=184	=184
*tremolo	*	*	*	*	*tremolo	*	*	*	*	*	*	*	*
8A\L	.	2ryy	16ff#\LL	.	16aa\LL	.	2ryy	4d\	.	4ff#\	.	4aa\	.
.	.	.	16ff#\	.	16aa\	.	.	.	.	.	.	.	.
8A\J	.	.	16ff#\	.	16aa\	.	.	.	.	.	.	.	.
.	.	.	16ff#\JJ	.	16aa\JJ	.	.	.	.	.	.	.	.
8B\L	.	.	16dd\LL	.	16ff#\LL	.	.	4f#\	.	4dd\	.	4ff#\	.
.	.	.	16dd\	.	16ff#\	.	.	.	.	.	.	.	.
8B\J	.	.	16dd\	.	16ff#\	.	.	.	.	.	.	.	.
.	.	.	16dd\JJ	.	16ff#\JJ	.	.	.	.	.	.	.	.
=185	=185	=185	=185	=185	=185	=185	=185	=185	=185	=185	=185	=185	=185
8G\L	.	2ryy	16ee\LL	.	16gg\LL	.	2ryy	4e\	.	4ee\	.	4ggn\	.
.	.	.	16ee\	.	16gg\	.	.	.	.	.	.	.	.
8G\J	.	.	16ee\	.	16gg\	.	.	.	.	.	.	.	.
.	.	.	16ee\JJ	.	16gg\JJ	.	.	.	.	.	.	.	.
8A\L	.	.	16cc#\LL	.	16ee\LL	.	.	4e\	.	4cc#\	.	4ee\	.
.	.	.	16cc#\	.	16ee\	.	.	.	.	.	.	.	.
8A\J	.	.	16cc#\	.	16ee\	.	.	.	.	.	.	.	.
.	.	.	16cc#\JJ	.	16ee\JJ	.	.	.	.	.	.	.	.
=186	=186	=186	=186	=186	=186	=186	=186	=186	=186	=186	=186	=186	=186
8D/L	.	2ryy	16a/LL	.	16ff#\LL	.	2ryy	4f#\	.	4dd\	.	4ff#\	.
.	.	.	16a/	.	16ff#\	.	.	.	.	.	.	.	.
8D/J	.	.	16a/	.	16ff#\	.	.	.	.	.	.	.	.
.	.	.	16a/JJ	.	16ff#\JJ	.	.	.	.	.	.	.	.
8BB/L	.	.	16f#/LL	.	16dd\LL	.	.	4f#\	.	4dd\	.	4ff#\	.
.	.	.	16f#/	.	16dd\	.	.	.	.	.	.	.	.
8BB/J	.	.	16f#/	.	16dd\	.	.	.	.	.	.	.	.
.	.	.	16f#/JJ	.	16dd\JJ	.	.	.	.	.	.	.	.
!	!	!	!	!	!	!	!	!	!	!	!	!LO:LB:g=original	!
=187	=187	=187	=187	=187	=187	=187	=187	=187	=187	=187	=187	=187	=187
8GG/L	.	2ryy	16g/LL	.	16ee\LL	.	2ryy	4e\	.	4ee\	.	4gg\	.
.	.	.	16g/	.	16ee\	.	.	.	.	.	.	.	.
8GG/J	.	.	16g/	.	16ee\	.	.	.	.	.	.	.	.
.	.	.	16g/JJ	.	16ee\JJ	.	.	.	.	.	.	.	.
8AA/L	.	.	16e/LL	.	16cc#\LL	.	.	4e\	.	4cc#\	.	4ee\	.
.	.	.	16e/	.	16cc#\	.	.	.	.	.	.	.	.
8AA/J	.	.	16e/	.	16cc#\	.	.	.	.	.	.	.	.
.	.	.	16e/JJ	.	16cc#\JJ	.	.	.	.	.	.	.	.
*Xtremolo	*	*	*Xtremolo	*	*Xtremolo	*	*	*	*	*	*	*	*
!	!	!	!	!	!LO:LB:g=original	!	!	!	!	!	!	!	!
=188	=188	=188	=188	=188	=188	=188	=188	=188	=188	=188	=188	=188	=188
!	!LO:DY:a	!	!	!LO:DY:a	!	!LO:DY:a:rj	!	!	!	!	!	!	!
(2D\	pp	2ryy	2f#/	fp	4dd\	p	2ryy	4f#\	.	4dd\	.	4ff#\	.
.	.	.	.	.	8r	.	.	4r	.	4r	.	4r	.
.	.	.	.	.	8dd\	.	.	.	.	.	.	.	.
=189	=189	=189	=189	=189	=189	=189	=189	=189	=189	=189	=189	=189	=189
!	!	!	!	!	!	!	!	!LO:TX:a:t=6	!	!LO:TX:a:t=5	!	!LO:TX:a:t=5	!
2D\	.	2ryy	2f#/	.	8dd\L	.	2ryy	0r	.	0r	.	0r	.
.	.	.	.	.	8dd\J	.	.	.	.	.	.	.	.
.	.	.	.	.	8dd\L	.	.	.	.	.	.	.	.
.	.	.	.	.	8dd\J	.	.	.	.	.	.	.	.
=190	=190	=190	=190	=190	=190	=190	=190	=190	=190	=190	=190	=190	=190
!	!	!	!	!LO:DY:a	!	!	!	!	!	!	!	!	!
2D\	.	2ryy	2g/	fp	(16ee\LL	.	2ryy	.	.	.	.	.	.
.	.	.	.	.	16ff#\)	.	.	.	.	.	.	.	.
.	.	.	.	.	16ee\	.	.	.	.	.	.	.	.
.	.	.	.	.	16dd\JJ	.	.	.	.	.	.	.	.
.	.	.	.	.	8cc#\L	.	.	.	.	.	.	.	.
.	.	.	.	.	8ee\J	.	.	.	.	.	.	.	.
=191	=191	=191	=191	=191	=191	=191	=191	=191	=191	=191	=191	=191	=191
2D\	.	2ryy	2g/	.	8ee\L	.	2ryy	.	.	.	.	.	.
.	.	.	.	.	8ee\	.	.	.	.	.	.	.	.
.	.	.	.	.	8ee\	.	.	.	.	.	.	.	.
.	.	.	.	.	8ee\J	.	.	.	.	.	.	.	.
!LO:LB:g=original	!	!	!	!	!	!	!	!	!	!	!	!	!
=192	=192	=192	=192	=192	=192	=192	=192	=192	=192	=192	=192	=192	=192
!	!	!	!	!LO:DY:a	!	!	!	!	!	!	!	!	!
2D\	.	2ryy	2a/	fp	(16ff#\LL	.	2ryy	.	.	.	.	.	.
.	.	.	.	.	16gg\	.	.	.	.	.	.	.	.
.	.	.	.	.	16ff#\	.	.	.	.	.	.	.	.
.	.	.	.	.	16ee\JJ)	.	.	.	.	.	.	.	.
.	.	.	.	.	8dd\L	.	.	.	.	.	.	.	.
.	.	.	.	.	8ff#\J	.	.	.	.	.	.	.	.
!	!	!	!LO:LB:g=original	!	!	!	!	!	!	!	!	!	!
=193	=193	=193	=193	=193	=193	=193	=193	=193	=193	=193	=193	=193	=193
2D\	.	2ryy	2a/	.	8ff#\L	.	2ryy	1r	.	2r	.	2r	.
.	.	.	.	.	8ff#\	.	.	.	.	.	.	.	.
.	.	.	.	.	8ff#\	.	.	.	.	.	.	.	.
.	.	.	.	.	8ff#\J	.	.	.	.	.	.	.	.
!	!	!	!	!	!	!	!	!	!	!LO:LB:g=original	!	!	!
=194	=194	=194	=194	=194	=194	=194	=194	=194	=194	=194	=194	=194	=194
!	!	!	!	!	!	!	!	!	!	!	!LO:DY:a	!	!LO:DY:a
2D\)	.	2ryy	2b/	.	16gg\LL	.	2ryy	.	.	4r	p	4r	p
.	.	.	.	.	16ff#\	.	.	.	.	.	.	.	.
.	.	.	.	.	16gg\	.	.	.	.	.	.	.	.
.	.	.	.	.	16aa\JJ	.	.	.	.	.	.	.	.
.	.	.	.	.	8bb\L	.	.	.	.	8r	.	8r	.
.	.	.	.	.	8b\J	.	.	.	.	8gg\	.	8bb\	.
=195	=195	=195	=195	=195	=195	=195	=195	=195	=195	=195	=195	=195	=195
*	*	*	*	*	*	*	*	*	*	*tremolo	*	*	*
!	!	!	!	!LO:DY:a:rj	!	!	!	!	!	!	!	!	!
4D\	.	2ryy	8a/L	p	2ccn\	.	2ryy	2d\	.	8aa\L	.	8cccn\L	.
.	.	.	8f#/	.	.	.	.	.	.	8aa\	.	8ccc\	.
4r	.	.	8a/	.	.	.	.	.	.	8aa\	.	8ccc\	.
.	.	.	8f#/J	.	.	.	.	.	.	8aa\J	.	8ccc\J	.
*	*	*	*	*	*	*	*	*	*	*Xtremolo	*	*	*
=196	=196	=196	=196	=196	=196	=196	=196	=196	=196	=196	=196	=196	=196
4G\	.	2ryy	8g/L	.	2b\	.	2ryy	2d\	.	4gg\	.	16bb\LL	.
!	!	!	!	!	!	!	!	!	!	!	!	!LO:SIC:v:s=16cccn\	!
.	.	.	.	.	.	.	.	.	.	.	.	16ccc#\	.
.	.	.	8d/	.	.	.	.	.	.	.	.	16bb\	.
.	.	.	.	.	.	.	.	.	.	.	.	16aa\JJ	.
4r	.	.	8g/	.	.	.	.	.	.	8r	.	8gg\L	.
.	.	.	8d/J	.	.	.	.	.	.	8gg\	.	8bb\J	.
!	!	!	!	!	!LO:LB:g=original	!	!	!	!	!	!	!	!
=197	=197	=197	=197	=197	=197	=197	=197	=197	=197	=197	=197	=197	=197
!	!	!	!LO:TX:t=P:problem=tt. 197-198 zapisane repetycją	!	!	!	!	!	!	!	!	!	!
*	*	*	*	*	*	*	*	*	*	*tremolo	*	*	*
!	!	!	!	!	!	!	!	!	!	!	!	!LO:TX:t=P:problem=tt. 198-199 zapisane repetycją	!
4D\	.	2ryy	8a/Lyy	.	2ccn\	.	2ryy	2d\	.	8aa\L	.	8cccn\Lyy	.
.	.	.	8f#/yy	.	.	.	.	.	.	8aa\	.	8ccc\yy	.
4r	.	.	8a/yy	.	.	.	.	.	.	8aa\	.	8ccc\yy	.
.	.	.	8f#/Jyy	.	.	.	.	.	.	8aa\J	.	8ccc\Jyy	.
*	*	*	*	*	*	*	*	*	*	*Xtremolo	*	*	*
=198	=198	=198	=198	=198	=198	=198	=198	=198	=198	=198	=198	=198	=198
!	!	!	!	!	!	!	!	!LO:TX:t=P:problem=tt.198-200 zapisane repetycją	!	!	!	!	!
4G\	.	2ryy	8g/Lyy	.	2b\	.	2ryy	2d\yy	.	4gg\	.	16bb\LLyy	.
!	!	!	!	!	!	!	!	!	!	!	!	!LO:SIC:v:s=16cccn\	!
.	.	.	.	.	.	.	.	.	.	.	.	16ccc#\yy	.
.	.	.	8d/yy	.	.	.	.	.	.	.	.	16bb\yy	.
.	.	.	.	.	.	.	.	.	.	.	.	16aa\JJyy	.
4r	.	.	8g/yy	.	.	.	.	.	.	8r	.	8gg\Lyy	.
.	.	.	8d/Jyy	.	.	.	.	.	.	8gg\	.	8bb\Jyy	.
=199	=199	=199	=199	=199	=199	=199	=199	=199	=199	=199	=199	=199	=199
4D\	.	2ryy	8a/L	.	2ccn\	.	2ryy	2d\yy	.	4aa\	.	16cccn\LL	.
.	.	.	.	.	.	.	.	.	.	.	.	16ddd\	.
.	.	.	8d/	.	.	.	.	.	.	.	.	16ccc\	.
.	.	.	.	.	.	.	.	.	.	.	.	16bb\JJ	.
4r	.	.	8f#/	.	.	.	.	.	.	8r	.	8aa\L	.
.	.	.	8d/J	.	.	.	.	.	.	8aa\	.	8ccc\J	.
=200	=200	=200	=200	=200	=200	=200	=200	=200	=200	=200	=200	=200	=200
4G\	.	2ryy	8g/L	.	2b\	.	2ryy	2d\yy	.	4gg\	.	16bb\LL	.
!	!	!	!	!	!	!	!	!	!	!	!	!LO:SIC:v:s=16cccn	!
.	.	.	.	.	.	.	.	.	.	.	.	16ccc#\	.
.	.	.	8d/	.	.	.	.	.	.	.	.	16bb\	.
.	.	.	.	.	.	.	.	.	.	.	.	16aa\JJ	.
4r	.	.	8g/	.	.	.	.	.	.	4r	.	8gg\L	.
.	.	.	8d/J	.	.	.	.	.	.	.	.	8bb\J	.
=201	=201	=201	=201	=201	=201	=201	=201	=201	=201	=201	=201	=201	=201
4D\	.	2ryy	8a/L	.	4ccn\	.	2ryy	4d\	.	4aa\	.	16cccn\LL	.
.	.	.	.	.	.	.	.	.	.	.	.	16ddd\	.
.	.	.	8d/	.	.	.	.	.	.	.	.	16ccc\	.
.	.	.	.	.	.	.	.	.	.	.	.	16bb\JJ	.
8D\	.	.	8f#/J	.	8cc\	.	.	8d\	.	4r	.	8aa\L	.
8r	.	.	8r	.	8r	.	.	8r	.	.	.	8ddd\J	.
=202	=202	=202	=202	=202	=202	=202	=202	=202	=202	=202	=202	=202	=202
!	!	!	!LO:TX:a:t=1	!	!LO:TX:a:t=1	!	!	!LO:TX:a:t=2	!	!LO:TX:a:t=2	!	!LO:TX:a:t=2	!
4r	.	2ryy	2r	.	2r	.	2ryy	1r	.	1r	.	1r	.
8r	.	.	.	.	.	.	.	.	.	.	.	.	.
!	!LO:DY:a:t=for	!	!	!	!	!	!	!	!	!	!	!	!
8G\	f	.	.	.	.	.	.	.	.	.	.	.	.
=203	=203	=203	=203	=203	=203	=203	=203	=203	=203	=203	=203	=203	=203
*tremolo	*	*	*	*	*	*	*	*	*	*	*	*	*
!LO:TX:a:t=Solo Basso	!	!	!	!	!	!	!	!	!	!	!	!	!
8G\L	.	2ryy	4r	.	4r	.	2ryy	.	.	.	.	.	.
8G\	.	.	.	.	.	.	.	.	.	.	.	.	.
8G\	.	.	8r	.	8r	.	.	.	.	.	.	.	.
!	!	!	!	!	!	!LO:DY:a:t=for	!	!	!	!	!	!	!
8G\J	.	.	8d/	.	8b\	f	.	.	.	.	.	.	.
*Xtremolo	*	*	*	*	*	*	*	*	*	*	*	*	*
!LO:LB:g=original	!	!	!	!	!	!	!	!LO:LB:g=original	!	!	!	!LO:LB:g=original	!
=204	=204	=204	=204	=204	=204	=204	=204	=204	=204	=204	=204	=204	=204
*	*	*	*tremolo	*	*tremolo	*	*	*	*	*	*	*	*
!	!	!	!	!LO:DY:a:rj:t=for.	!	!	!	!	!LO:DY:a:rj	!	!	!	!LO:DY:a:rj:t=f.
(16B\LL	.	2ryy	8e/L	f	8cc#\L	.	2ryy	2e\	f	2a/	.	2ee\	f
16A\)	.	.	.	.	.	.	.	.	.	.	.	.	.
16G'\	.	.	8e/	.	8cc#\	.	.	.	.	.	.	.	.
16F#'\JJ	.	.	.	.	.	.	.	.	.	.	.	.	.
8E\L	.	.	8e/	.	8cc#\	.	.	.	.	.	.	.	.
8A\J	.	.	8e/J	.	8cc#\J	.	.	.	.	.	.	.	.
*	*	*	*Xtremolo	*	*Xtremolo	*	*	*	*	*	*	*	*
=205	=205	=205	=205	=205	=205	=205	=205	=205	=205	=205	=205	=205	=205
*tremolo	*	*	*	*	*	*	*	*	*	*	*	*	*
8A\L	.	2ryy	16e/LL	.	(16cc#\LL	.	2ryy	2e\	.	2a/	.	2ee\	.
.	.	.	16f#/	.	16dd\)	.	.	.	.	.	.	.	.
8A\	.	.	16e/	.	16cc#\	.	.	.	.	.	.	.	.
.	.	.	16d/JJ	.	16b\JJ	.	.	.	.	.	.	.	.
8A\	.	.	8c#/L	.	8a\L	.	.	.	.	.	.	.	.
8A\J	.	.	8e/J	.	8cc#\J	.	.	.	.	.	.	.	.
*Xtremolo	*	*	*	*	*	*	*	*	*	*	*	*	*
!	!	!	!LO:LB:g=original	!	!	!	!	!	!	!	!	!	!
=206	=206	=206	=206	=206	=206	=206	=206	=206	=206	=206	=206	=206	=206
*	*	*	*tremolo	*	*tremolo	*	*	*	*	*	*	*	*
(16A\LL	.	2ryy	8f#/L	.	8dd\L	.	2ryy	2f#\	.	2b/	.	2ff#\	.
16B\)	.	.	.	.	.	.	.	.	.	.	.	.	.
16A'\	.	.	8f#/	.	8dd\	.	.	.	.	.	.	.	.
16G'\JJ	.	.	.	.	.	.	.	.	.	.	.	.	.
8F#\L	.	.	8f#/	.	8dd\	.	.	.	.	.	.	.	.
8B\J	.	.	8f#/J	.	8dd\J	.	.	.	.	.	.	.	.
*	*	*	*Xtremolo	*	*Xtremolo	*	*	*	*	*	*	*	*
=207	=207	=207	=207	=207	=207	=207	=207	=207	=207	=207	=207	=207	=207
*tremolo	*	*	*	*	*	*	*	*	*	*	*	*	*
8B\L	.	2ryy	16f#/LL	.	(16dd\LL	.	2ryy	2f#\	.	2b/	.	2ff#\	.
.	.	.	16g/	.	16ee\)	.	.	.	.	.	.	.	.
8B\	.	.	16f#/	.	16dd\	.	.	.	.	.	.	.	.
.	.	.	16e/JJ	.	16cc#\JJ	.	.	.	.	.	.	.	.
!	!	!	!LO:TX:t=P:problem=mixed beam	!	!	!	!	!	!	!	!	!	!
8B\	.	.	8d/L	.	8b\L	.	.	.	.	.	.	.	.
8B\J	.	.	8b\J	.	8dd#X\J	.	.	.	.	.	.	.	.
*Xtremolo	*	*	*	*	*	*	*	*	*	*	*	*	*
!	!	!	!	!	!LO:LB:g=original	!	!	!	!	!LO:LB:g=original	!	!	!
=208	=208	=208	=208	=208	=208	=208	=208	=208	=208	=208	=208	=208	=208
(16G\LL	.	2ryy	8b/L	.	8ee\L	.	2ryy	8e\L	.	8ee\L	.	8gg\L	.
16A\)	.	.	.	.	.	.	.	.	.	.	.	.	.
16G'\	.	.	8b/	.	8ee\	.	.	8e\	.	8ee\	.	8gg\	.
16F#'\JJ	.	.	.	.	.	.	.	.	.	.	.	.	.
8E\L	.	.	8g/	.	8ee\	.	.	8e\J	.	8ee\	.	8gg\	.
!	!	!	!	!	!LO:TX:a:t=c	!	!	!	!	!	!	!	!
8G\J	.	.	8a/J	.	8ee\J 8cc#\	.	.	8r	.	8cc#\J	.	8ee\J	.
=209	=209	=209	=209	=209	=209	=209	=209	=209	=209	=209	=209	=209	=209
*	*	*	*	*	*	*	*	*	*	*tremolo	*	*	*
(16F#\LL	.	2ryy	16a/LL	.	8dd\L	.	2ryy	8d\L	.	8dd\L	.	8ff#\L	.
16G\	.	.	16b/	.	.	.	.	.	.	.	.	.	.
16F#\	.	.	16a/	.	8dd\	.	.	8d\	.	8dd\	.	8ff#\	.
16E\JJ)	.	.	16g/JJ	.	.	.	.	.	.	.	.	.	.
!	!	!	!LO:TX:t=P:problem=mixed beam	!	!	!	!	!	!	!	!	!	!
8D\L	.	.	8f#/L	.	8dd\	.	.	8d\J	.	8dd\	.	8ff#\	.
8F#\J	.	.	8dd\J	.	8ddd\J	.	.	8r	.	8dd\J	.	8aa\J	.
*	*	*	*	*	*	*	*	*	*	*Xtremolo	*	*	*
=210	=210	=210	=210	=210	=210	=210	=210	=210	=210	=210	=210	=210	=210
8G\L	.	2ryy	8dd\L	.	8bb\L	.	2ryy	8d\L	.	8dd\L	.	8bb\L	.
8G\	.	.	8dd\	.	8bb\	.	.	8d\	.	8dd\	.	8bb\	.
8G\J	.	.	8dd\J	.	8bb\	.	.	8d\J	.	8dd\J	.	8bb\J	.
8r	.	.	8r	.	8ddd\J	.	.	8r	.	8r	.	8r	.
=211	=211	=211	=211	=211	=211	=211	=211	=211	=211	=211	=211	=211	=211
8F#\L	.	2ryy	8dd\L	.	8aa\L	.	2ryy	8d\L	.	8dd\L	.	8aa\L	.
8F#\	.	.	8dd\	.	8aa\	.	.	8d\	.	8dd\	.	8aa\	.
8F#\J	.	.	8dd\J	.	8aa\	.	.	8d\J	.	8dd\J	.	8aa\J	.
8r	.	.	8r	.	8ddd\J	.	.	8r	.	8r	.	8r	.
!LO:LB:g=original	!	!	!	!	!	!	!	!	!	!	!	!	!
=212	=212	=212	=212	=212	=212	=212	=212	=212	=212	=212	=212	=212	=212
*tremolo	*	*	*tremolo	*	*	*	*	*	*	*	*	*	*
8G\L	.	2ryy	16dd\LL	.	4bb\	.	2ryy	4d\	.	4dd\	.	4bb\	.
.	.	.	16dd\	.	.	.	.	.	.	.	.	.	.
8G\	.	.	16dd\	.	.	.	.	.	.	.	.	.	.
.	.	.	16dd\	.	.	.	.	.	.	.	.	.	.
8G\	.	.	16dd\	.	4gg\ 4b\	.	.	4e\	.	4ee\	.	4gg\	.
.	.	.	16dd\	.	.	.	.	.	.	.	.	.	.
8G\J	.	.	16dd\	.	.	.	.	.	.	.	.	.	.
.	.	.	16dd\JJ	.	.	.	.	.	.	.	.	.	.
=213	=213	=213	=213	=213	=213	=213	=213	=213	=213	=213	=213	=213	=213
8A\L	.	2ryy	16dd\LL	.	4ff#\ 4dd\	.	2ryy	4f#\	.	4dd\	.	4ff#\	.
.	.	.	16dd\	.	.	.	.	.	.	.	.	.	.
8A\J	.	.	16dd\	.	.	.	.	.	.	.	.	.	.
.	.	.	16dd\JJ	.	.	.	.	.	.	.	.	.	.
8AA/L	.	.	16cc#\LL	.	4ee\ 4cc#\	.	.	4e\	.	4cc#\	.	4ee\	.
.	.	.	16cc#\	.	.	.	.	.	.	.	.	.	.
8AA/J	.	.	16cc#\	.	.	.	.	.	.	.	.	.	.
.	.	.	16cc#\JJ	.	.	.	.	.	.	.	.	.	.
=214	=214	=214	=214	=214	=214	=214	=214	=214	=214	=214	=214	=214	=214
8D\L	.	2ryy	16a/LL	.	4ff#\ 4dd\	.	2ryy	4f#\	.	4dd\	.	4ff#\	.
.	.	.	16a/	.	.	.	.	.	.	.	.	.	.
8D\J	.	.	16a/	.	.	.	.	.	.	.	.	.	.
.	.	.	16a/JJ	.	.	.	.	.	.	.	.	.	.
8G\L	.	.	16b/LL	.	4gg\ 4b\	.	.	4e\	.	4b\	.	4gg\	.
.	.	.	16b/	.	.	.	.	.	.	.	.	.	.
8G\J	.	.	16b/	.	.	.	.	.	.	.	.	.	.
.	.	.	16b/JJ	.	.	.	.	.	.	.	.	.	.
!	!	!	!LO:LB:g=original	!	!	!	!	!	!	!	!	!	!
=215	=215	=215	=215	=215	=215	=215	=215	=215	=215	=215	=215	=215	=215
8A\L	.	2ryy	16a/LL	.	4ff#\ 4dd\	.	2ryy	4f#\	.	4dd\	.	4ff#\	.
.	.	.	16a/	.	.	.	.	.	.	.	.	.	.
8A\J	.	.	16a/	.	.	.	.	.	.	.	.	.	.
.	.	.	16a/JJ	.	.	.	.	.	.	.	.	.	.
8AA/L	.	.	16g/LL	.	4ee\ 4cc#\	.	.	4e\	.	4cc#\	.	4ee\	.
.	.	.	16g/	.	.	.	.	.	.	.	.	.	.
8AA/J	.	.	16g/	.	.	.	.	.	.	.	.	.	.
.	.	.	16g/JJ	.	.	.	.	.	.	.	.	.	.
*	*	*	*Xtremolo	*	*	*	*	*	*	*	*	*	*
!	!	!	!	!	!	!	!	!LO:LB:g=original	!	!	!	!	!
=216	=216	=216	=216	=216	=216	=216	=216	=216	=216	=216	=216	=216	=216
!	!LO:DY:t=for.	!	!	!	!	!	!	!	!	!	!	!	!
16D\LL	f	2ryy	4f#/	.	4dd\	.	2ryy	8d\L	.	8dd\L	.	8ff#\L	.
16d\	.	.	.	.	.	.	.	.	.	.	.	.	.
16D\	.	.	.	.	.	.	.	16d\L	.	8dd\	.	8ff#\	.
16d\	.	.	.	.	.	.	.	16d\JJ	.	.	.	.	.
!	!	!	!LO:N:vis=8	!	!LO:N:vis=8	!	!	!	!	!	!	!	!
16D\	.	.	8.r	.	8.r	.	.	8d\L	.	8dd\J	.	8ff#\J	.
16d\	.	.	.	.	.	.	.	.	.	.	.	.	.
16D\	.	.	.	.	.	.	.	8d\J	.	8r	.	8r	.
16d\JJ	.	.	16ff#\	.	16ddd\	.	.	.	.	.	.	.	.
=217	=217	=217	=217	=217	=217	=217	=217	=217	=217	=217	=217	=217	=217
16D\LL	.	2ryy	8.ff#\L	.	8.ddd\L	.	2ryy	4d\	.	2ff#\	.	2aa\	.
16d\	.	.	.	.	.	.	.	.	.	.	.	.	.
16D\	.	.	.	.	.	.	.	.	.	.	.	.	.
16d\	.	.	16ff#\K	.	16aa\K	.	.	.	.	.	.	.	.
16D\	.	.	8.ff#\	.	8.aa\	.	.	4a\	.	.	.	.	.
16d\	.	.	.	.	.	.	.	.	.	.	.	.	.
16D\	.	.	.	.	.	.	.	.	.	.	.	.	.
16d\JJ	.	.	16dd\Jk	.	16ff#\Jk	.	.	.	.	.	.	.	.
=218	=218	=218	=218	=218	=218	=218	=218	=218	=218	=218	=218	=218	=218
16D\LL	.	2ryy	4dd\	.	4ff#\	.	2ryy	8f#\L	.	8dd\L	.	8ff#\L	.
16d\	.	.	.	.	.	.	.	.	.	.	.	.	.
16D\	.	.	.	.	.	.	.	8f#\	.	8dd\	.	8ff#\	.
16d\	.	.	.	.	.	.	.	.	.	.	.	.	.
!	!	!	!	!	!LO:N:vis=8	!	!	!	!	!	!	!	!
16D\	.	.	8.r	.	8.r	.	.	8f#\	.	8dd\J	.	8ff#\J	.
16d\	.	.	.	.	.	.	.	.	.	.	.	.	.
16D\	.	.	.	.	.	.	.	8a\J	.	8r	.	8r	.
16d\JJ	.	.	16ff#\	.	16aa\	.	.	.	.	.	.	.	.
!	!	!	!	!	!LO:LB:g=original	!	!	!	!	!	!	!	!
=219	=219	=219	=219	=219	=219	=219	=219	=219	=219	=219	=219	=219	=219
!	!	!	!LO:TX:t=P:problem=mixed beam	!	!	!	!	!	!	!	!	!	!
16D\LL	.	2ryy	8.ff#\L	.	8.aa\L	.	2ryy	4a\	.	2dd\	.	2ff#\	.
16d\	.	.	.	.	.	.	.	.	.	.	.	.	.
16D\	.	.	.	.	.	.	.	.	.	.	.	.	.
16d\	.	.	16dd\K	.	16ff#\K	.	.	.	.	.	.	.	.
16D\	.	.	8.dd\	.	8.ff#\	.	.	4f#\	.	.	.	.	.
16d\	.	.	.	.	.	.	.	.	.	.	.	.	.
16D\	.	.	.	.	.	.	.	.	.	.	.	.	.
16d\JJ	.	.	16f#/Jk	.	16dd\Jk	.	.	.	.	.	.	.	.
!	!	!	!	!	!	!	!	!	!	!LO:LB:g=original	!	!LO:LB:g=original	!
=220	=220	=220	=220	=220	=220	=220	=220	=220	=220	=220	=220	=220	=220
16D\LL	.	2ryy	4f#/	.	4dd\	.	2ryy	8d\L	.	8dd\L	.	8ff#\L	.
16d\	.	.	.	.	.	.	.	.	.	.	.	.	.
16D\	.	.	.	.	.	.	.	16d\L	.	8dd\	.	8ff#\	.
16d\	.	.	.	.	.	.	.	16d\JJ	.	.	.	.	.
!	!	!	!	!	!LO:N:vis=8	!	!	!	!	!	!	!	!
16D\	.	.	8.r	.	8.r	.	.	8d\L	.	8dd\J	.	8ff#\J	.
16d\	.	.	.	.	.	.	.	.	.	.	.	.	.
16D\	.	.	.	.	.	.	.	8d\J	.	8r	.	8r	.
16d\JJ	.	.	16dd\	.	16ff#\	.	.	.	.	.	.	.	.
=221	=221	=221	=221	=221	=221	=221	=221	=221	=221	=221	=221	=221	=221
*	*	*	*	*	*	*	*	*tremolo	*	*	*	*	*
16D\LL	.	2ryy	8.dd\L	.	8.ff#\L	.	2ryy	8d\L	.	2dd\	.	2ff#\	.
16d\	.	.	.	.	.	.	.	.	.	.	.	.	.
16D\	.	.	.	.	.	.	.	8d\	.	.	.	.	.
16d\	.	.	16a\K	.	16dd\K	.	.	.	.	.	.	.	.
16D\	.	.	8.a\	.	8.dd\	.	.	8d\	.	.	.	.	.
16d\	.	.	.	.	.	.	.	.	.	.	.	.	.
16D\	.	.	.	.	.	.	.	8d\J	.	.	.	.	.
16d\JJ	.	.	16f#\Jk	.	16a\Jk	.	.	.	.	.	.	.	.
*	*	*	*	*	*	*	*	*Xtremolo	*	*	*	*	*
!LO:LB:g=original	!	!	!	!	!	!	!	!	!	!	!	!	!
=222	=222	=222	=222	=222	=222	=222	=222	=222	=222	=222	=222	=222	=222
16D\LL	.	2ryy	8.f#/L	.	8.a/L	.	2ryy	8d\L	.	4ff#\	.	4aa\	.
16d\	.	.	.	.	.	.	.	.	.	.	.	.	.
16D\	.	.	.	.	.	.	.	16d\L	.	.	.	.	.
16d\	.	.	16a/K	.	16dd/K	.	.	16d\JJ	.	.	.	.	.
16D\	.	.	8.a/	.	8.dd/	.	.	8d\L	.	4ee\	.	4ddd\	.
16d\	.	.	.	.	.	.	.	.	.	.	.	.	.
16D\	.	.	.	.	.	.	.	8d\J	.	.	.	.	.
16d\JJ	.	.	16f#/Jk	.	16a/Jk	.	.	.	.	.	.	.	.
!	!	!	!LO:LB:g=original	!	!	!	!	!	!	!	!	!	!
=223	=223	=223	=223	=223	=223	=223	=223	=223	=223	=223	=223	=223	=223
*	*	*	*	*	*	*	*	*tremolo	*	*	*	*	*
16D\LL	.	2ryy	8.f#/L	.	8.a/L	.	2ryy	8d\L	.	4ff#\	.	4aa\	.
16d\	.	.	.	.	.	.	.	.	.	.	.	.	.
16D\	.	.	.	.	.	.	.	8d\	.	.	.	.	.
16d\	.	.	16d/K	.	16f#/K	.	.	.	.	.	.	.	.
16D\	.	.	8.d/	.	8.f#/	.	.	8d\	.	4dd\	.	4ff#\	.
16d\	.	.	.	.	.	.	.	.	.	.	.	.	.
16D\	.	.	.	.	.	.	.	8d\J	.	.	.	.	.
*Xtremolo	*	*	*	*	*	*	*	*Xtremolo	*	*	*	*	*
16d\JJ	.	.	16A/Jk	.	16d/Jk	.	.	.	.	.	.	.	.
=224	=224	=224	=224	=224	=224	=224	=224	=224	=224	=224	=224	=224	=224
4D\	.	2ryy	4A/	.	4d/	.	2ryy	4d\	.	4f#/	.	4dd\	.
4r	.	.	4r	.	8r	.	.	4r	.	4r	.	4r	.
!	!	!	!	!	!	!LO:DY:a:t=p.	!	!	!	!	!	!	!
.	.	.	.	.	8a/	p	.	.	.	.	.	.	.
=225	=225	=225	=225	=225	=225	=225	=225	=225	=225	=225	=225	=225	=225
*	*	*	*	*	*tremolo	*	*	*	*	*	*	*	*
!	!LO:DY:a:t=p.	!	!	!LO:DY:a	!	!	!	!	!LO:DY:a:rj	!	!LO:DY:a:rj:t=p.	!	!LO:DY:a:rj
(2AA/	p	2ryy	2c#/	p	8a/L	.	2ryy	2e\	p	2ee\	p	2gg\	p
.	.	.	.	.	8a/	.	.	.	.	.	.	.	.
.	.	.	.	.	8a/	.	.	.	.	.	.	.	.
.	.	.	.	.	8a/J	.	.	.	.	.	.	.	.
*	*	*	*	*	*Xtremolo	*	*	*	*	*	*	*	*
=226	=226	=226	=226	=226	=226	=226	=226	=226	=226	=226	=226	=226	=226
4D\)	.	2ryy	4d/	.	4f#/	.	2ryy	4d\	.	4dd\	.	4ff#\	.
4r	.	.	4r	.	8r	.	.	4r	.	4r	.	4r	.
.	.	.	.	.	8a/	.	.	.	.	.	.	.	.
!	!	!	!	!	!	!	!	!LO:LB:g=original	!	!	!	!	!
=227	=227	=227	=227	=227	=227	=227	=227	=227	=227	=227	=227	=227	=227
*	*	*	*	*	*tremolo	*	*	*	*	*	*	*	*
(2A\	.	2ryy	2g/	.	8a/L	.	2ryy	2e\	.	2ee\	.	2gg\	.
.	.	.	.	.	8a/	.	.	.	.	.	.	.	.
.	.	.	.	.	8a/	.	.	.	.	.	.	.	.
.	.	.	.	.	8a/J	.	.	.	.	.	.	.	.
*	*	*	*	*	*Xtremolo	*	*	*	*	*	*	*	*
=228	=228	=228	=228	=228	=228	=228	=228	=228	=228	=228	=228	=228	=228
!	!	!	!LO:SIC:v:s=4f/	!	!	!	!	!	!	!	!	!	!
4D\)	.	2ryy	4g/	.	4dd\	.	2ryy	4d\	.	4dd\	.	4ff#\	.
8r	.	.	8r	.	8r	.	.	8r	.	8r	.	8r	.
!	!LO:DY:a:rj:t=for.	!	!	!LO:DY:a:rj:t=f.	!	!LO:DY:a:rj:t=fo	!	!	!	!	!LO:DY:a:rj:t=f.	!	!
8A\	f	.	8gg\ 8a\	f	8ccc#\ 8ee\	f	.	8e\	.	8ee\	f	8ff#\	.
!	!	!	!	!	!LO:LB:g=original	!	!	!	!	!	!	!	!
=229	=229	=229	=229	=229	=229	=229	=229	=229	=229	=229	=229	=229	=229
*tremolo	*	*	*	*	*tremolo	*	*	*	*	*	*	*tremolo	*
*	*	*	*	*	*	*	*	*tremolo	*	*tremolo	*	*	*
!	!	!	!LO:TX:t=P:problem=brak taktu	!	!	!	!	!	!LO:DY:a:rj	!	!	!	!
8A\L	.	2ryy	2ryy	.	8ccc#\L 8ee\	.	2ryy	8e\L	f	8ee\L	.	8gg\L	.
8A\	.	.	.	.	8ccc#\ 8ee\	.	.	8e\	.	8ee\	.	8gg\	.
8A\	.	.	.	.	8ccc#\ 8ee\	.	.	8e\	.	8ee\	.	8gg\	.
8A\J	.	.	.	.	8ccc#\J 8ee\	.	.	8e\J	.	8ee\J	.	8gg\J	.
*Xtremolo	*	*	*	*	*Xtremolo	*	*	*Xtremolo	*	*Xtremolo	*	*Xtremolo	*
!	!	!	!	!	!	!	!	!	!	!LO:LB:g=original	!	!	!
=230	=230	=230	=230	=230	=230	=230	=230	=230	=230	=230	=230	=230	=230
4D\	.	2ryy	4ff#\ 4a\	.	4ddd\ 4ff#\	.	2ryy	4f#\	.	4dd\	.	4ff#\	.
4r	.	.	4r	.	4r	.	.	4r	.	4r	.	4r	.
!LO:LB:g=original	!	!	!	!	!	!	!	!	!	!	!	!	!
=231	=231	=231	=231	=231	=231	=231	=231	=231	=231	=231	=231	=231	=231
*	*	*	*^	*	*	*	*	*	*	*	*	*	*
4D\	.	2ryy	4ff#/ 4a/	4d\	.	4ddd\ 4ff#\ 4d\	.	2ryy	4d\	.	4dd\	.	4ff#\	.
4r	.	.	4r	4r	.	4r	.	.	4r	.	4r	.	4r	.
=232	=232	=232	=232	=232	=232	=232	=232	=232	=232	=232	=232	=232	=232	=232
4D\	.	2ryy	4ff#/ 4a/	4d\	.	4ddd\ 4ff#\ 4d\	.	2ryy	4d\	.	4dd\	.	4ff#\	.
!LO:TX:b:i:t=Fine	!	!	!	!	!	!	!	!	!	!	!	!	!	!
4r	.	.	4r	4ryy	.	4r	.	.	4r	.	4r	.	4r	.
*	*	*	*v	*v	*	*	*	*	*	*	*	*	*	*
==	==	==	==	==	==	==	==	==	==	==	==	==	==
*-	*-	*-	*-	*-	*-	*-	*-	*-	*-	*-	*-	*-	*-
!!!system-decoration: [(g1)][(g2)][(g3)]s8
!!!ENC: Krzysztof Stępień
!!!END: 2020-10-21
!!!EED: Andrzej Borzym
!!!EEV: 2022-02-07
!!!YEC: Copyright 2022 Narodowy Instytut Fryderyka Chopina (https://polishscores.org)
!!!YEM: License CC-BY-4.0 (https://creativecommons.org/licenses/by/4.0)
